; generated by SuperSlicer 2.4 on 2022-08-10 at 05:55:24 UTC

;TYPE:Custom
; printing object STARTGCODE
M104 S0;
M140 S0;
START_PRINT_B BED_TEMP=85 BED_TEMP_FL=100 INITIAL_EXTRUDER=1 INITIAL_TOOL=1 CURRENT_EXTRUDER=1 EXTRUDER_0_NAME=extruder EXTRUDER_0_TEMP=240 EXTRUDER_0_TEMP_FL=240 EXTRUDER_0_RETRACT=0 EXTRUDER_1_NAME=extruder1 EXTRUDER_1_TEMP=240 EXTRUDER_1_TEMP_FL=240 EXTRUDER_1_RETRACT=0.75 TOOL_CHANGES=0
M107
G21 ; set units to millimeters
G90 ; use absolute coordinates
M83 ; use relative distances for extrusion
CHANGE_TOOL NEW_EXTRUDER=1
; Filament gcode
SET_PRESSURE_ADVANCE ADVANCE=0.04
M107


M117 layer 388 at 77.8mm
G1 E-0.75 F3000
G1 Z78.2 F7200
G1 X239.164 Y280.836
G1 Z77.8
G1 E0.75 F3000
;TYPE:Skirt
;WIDTH:0.45
G1 F3600
G1 X252.462 Y280.209 E0.4104
G1 X253.255 Y279.863 E0.02666
G1 X258.332 Y274.863 E0.21967
G1 X258.693 Y274 E0.02883
G1 X258.693 Y46 E7.02871
G1 X258.332 Y45.137 E0.02883
G1 X253.255 Y40.137 E0.21967
G1 X252.462 Y39.791 E0.02666
G1 X229.755 Y38.719 E0.7008
G1 X47.245 Y38.719 E5.62635
G1 X24.538 Y39.791 E0.7008
G1 X23.745 Y40.137 E0.02666
G1 X18.668 Y45.137 E0.21967
G1 X18.307 Y46 E0.02883
G1 X18.307 Y274 E7.02871
G1 X18.668 Y274.863 E0.02883
G1 X23.745 Y279.863 E0.21967
G1 X24.538 Y280.209 E0.02666
G1 X47.302 Y281.282 E0.70256
G1 X229.698 Y281.282 E5.62283
G1 X239.104 Y280.839 E0.29031
G1 X239.085 Y280.432 F7200
G1 F3600
G1 X252.443 Y279.803 E0.41225
G1 X252.969 Y279.573 E0.0177
G1 X258.046 Y274.573 E0.21967
G1 X258.286 Y274 E0.01913
G1 X258.286 Y46 E7.02871
G1 X258.046 Y45.427 E0.01913
G1 X252.969 Y40.427 E0.21967
G1 X252.443 Y40.197 E0.0177
G1 X229.736 Y39.126 E0.7008
G1 X47.264 Y39.126 E5.62516
G1 X24.557 Y40.197 E0.7008
G1 X24.031 Y40.427 E0.0177
G1 X18.954 Y45.427 E0.21967
G1 X18.714 Y46 E0.01913
G1 X18.714 Y274 E7.02871
G1 X18.954 Y274.573 E0.01913
G1 X24.031 Y279.573 E0.21967
G1 X24.557 Y279.803 E0.0177
G1 X47.302 Y280.875 E0.70197
G1 X229.698 Y280.875 E5.62283
G1 X239.025 Y280.435 E0.28787
G1 E-0.75 F3000
G1 Z78.2 F7200
; printing object Uni tophat part individual.stl id:0 copy 0
G1 X35.793 Y273.961
G1 Z77.8
G1 E0.75 F3000
;TYPE:Internal perimeter
G1 F4500
G1 X34.979 Y273.961 E0.0251
G1 X34.979 Y277.961 E0.12331
G1 X26.29 Y277.961 E0.26786
G1 X21.826 Y273.565 E0.19313
G1 X21.826 Y265.039 E0.26283
G1 X25.857 Y265.039 E0.12427
G1 X25.857 Y262.039 E0.09248
G1 X34.071 Y262.039 E0.25319
G1 X34.298 Y262.271 E0.01003
G1 X37.48 Y265.454 E0.13872
G1 X37.979 Y265.963 E0.02198
G1 X37.979 Y273.961 E0.24656
G1 X35.853 Y273.961 E0.06553
G1 X35.793 Y274.368 F7200
G1 F4500
G1 X35.386 Y274.368 E0.01255
G1 X35.386 Y277.632 E0.10063
G1 X38.538 Y277.632 E0.09716
G1 X37.79 Y278.368 E0.03234
G1 X26.123 Y278.368 E0.35967
G1 X21.419 Y273.735 E0.20353
G1 X21.419 Y262.265 E0.35362
G1 X22.186 Y261.509 E0.03318
G1 X22.186 Y264.632 E0.09627
G1 X25.45 Y264.632 E0.10063
G1 X25.45 Y261.632 E0.09248
G1 X34.241 Y261.632 E0.27101
G1 X34.588 Y261.985 E0.01524
G1 X37.769 Y265.167 E0.13872
G1 X38.386 Y265.797 E0.02717
G1 X38.386 Y274.368 E0.26424
G1 X35.853 Y274.368 E0.07808
G1 X35.793 Y274.775 F7200
;TYPE:External perimeter
G1 F3375
G1 X35.793 Y277.225 E0.07553
G1 X38.84 Y277.225 E0.09393
G1 X38.84 Y277.906 E0.02099
G1 X37.957 Y278.775 E0.0382
G1 X25.956 Y278.775 E0.36995
G1 X21.012 Y273.906 E0.21393
G1 X21.012 Y262.094 E0.36412
G1 X21.895 Y261.225 E0.03818
G1 X22.593 Y261.225 E0.02154
G1 X22.593 Y264.225 E0.09248
G1 X25.043 Y264.225 E0.07553
G1 X25.043 Y261.225 E0.09248
G1 X34.412 Y261.225 E0.28883
G1 X34.877 Y261.699 E0.02045
G1 X38.058 Y264.881 E0.13872
G1 X38.793 Y265.63 E0.03236
G1 X38.793 Y274.775 E0.28191
G1 X35.853 Y274.775 E0.09063
;WIPE_START
G1 X35.393 Y274.775 F7200
;WIPE_END
G1 E-0.75 F3000
G1 Z78.2 F7200
G1 X35.166 Y278
G1 Z77.8
G1 E0.75 F3000
;TYPE:Gap fill
;WIDTH:0.404087
G1 X35.347 Y278 E0.00494
G1 X37.64 Y278 E0.0627
G1 X37.788 Y277.981 E0.00408
;WIDTH:0.319741
G1 X37.936 Y277.962 E0.00313
G1 E-0.75
G1 Z78.2 F7200
G1 X30.678 Y277.851
G1 Z77.8
G1 E0.75 F3000
;TYPE:Internal infill
;WIDTH:0.45
G1 F4500
G1 X22.111 Y269.285 E0.37347
G1 X22.111 Y271.587 E0.07099
G1 X28.375 Y277.851 E0.27307
G1 E-0.75 F3000
G1 Z78.2 F7200
G1 X29.572 Y272.088
G1 Z77.8
G1 E0.75 F3000
;TYPE:Internal bridge infill
;WIDTH:0.4
;HEIGHT:0.4
M106 S255
G1 F1800
G1 X26.416 Y268.932 E0.21238
M107
G1 X26.812 Y269.852 F7200
M106 S255
G1 F1800
G1 X28.652 Y271.692 E0.12377
M107
G1 X30.255 Y272.248 F7200
M106 S255
G1 F1800
G1 X26.47 Y268.463 E0.25467
G1 X26.438 Y268.302 E0.00781
G1 X26.409 Y268.106 E0.00942
G1 X26.386 Y267.904 E0.00967
G1 X26.383 Y267.852 E0.00246
G1 X30.652 Y272.121 E0.28723
G1 X30.803 Y272.131 E0.0072
G1 X31.004 Y272.136 E0.0096
G1 X31.185 Y272.131 E0.00861
G1 X26.373 Y267.319 E0.32383
G1 X26.373 Y267.299 E0.00094
G1 X26.386 Y267.096 E0.00968
G1 X26.408 Y266.899 E0.00944
G1 X26.417 Y266.839 E0.00285
G1 X31.665 Y272.087 E0.35313
G1 X31.807 Y272.066 E0.00684
G1 X32.008 Y272.026 E0.00976
G1 X32.104 Y272.002 E0.00468
G1 X26.502 Y266.4 E0.37697
G1 X26.527 Y266.297 E0.00506
G1 X26.583 Y266.108 E0.00937
G1 X26.62 Y265.996 E0.00564
G1 X32.508 Y271.884 E0.3962
G1 X32.586 Y271.857 E0.00392
G1 X32.779 Y271.783 E0.00983
G1 X32.884 Y271.736 E0.00547
G1 X26.768 Y265.62 E0.41159
G1 X26.802 Y265.541 E0.00407
G1 X26.892 Y265.359 E0.00967
G1 X26.941 Y265.27 E0.00485
G1 X33.234 Y271.563 E0.42345
G1 X33.323 Y271.513 E0.00485
G1 X33.495 Y271.41 E0.00951
G1 X33.561 Y271.366 E0.00379
G1 X27.138 Y264.943 E0.43219
G1 X27.208 Y264.839 E0.00595
G1 X27.327 Y264.678 E0.00956
G1 X27.358 Y264.639 E0.00234
G1 X33.865 Y271.146 E0.43787
G1 X33.982 Y271.052 E0.00717
G1 X34.148 Y270.906 E0.01051
G1 X27.598 Y264.356 E0.4408
G1 X27.724 Y264.224 E0.00867
G1 X27.86 Y264.094 E0.00894
G1 X34.41 Y270.644 E0.4408
G1 X34.556 Y270.48 E0.01043
G1 X34.651 Y270.361 E0.00724
G1 X28.143 Y263.853 E0.43794
G1 X28.184 Y263.82 E0.00251
G1 X28.347 Y263.701 E0.00962
G1 X28.447 Y263.635 E0.00572
G1 X34.869 Y270.057 E0.43215
G1 X34.914 Y269.99 E0.00383
G1 X35.019 Y269.818 E0.00956
G1 X35.067 Y269.731 E0.00475
G1 X28.773 Y263.437 E0.42349
G1 X28.862 Y263.389 E0.00478
G1 X29.045 Y263.298 E0.00974
G1 X29.123 Y263.264 E0.00408
G1 X35.24 Y269.381 E0.41161
G1 X35.288 Y269.272 E0.00563
G1 X35.36 Y269.086 E0.00951
G1 X35.388 Y269.004 E0.00408
G1 X29.5 Y263.116 E0.39623
G1 X29.611 Y263.078 E0.00558
G1 X29.804 Y263.022 E0.0096
G1 X29.904 Y262.998 E0.00491
G1 X35.506 Y268.6 E0.37696
G1 X35.53 Y268.502 E0.00478
G1 X35.57 Y268.302 E0.00968
G1 X35.592 Y268.161 E0.0068
G1 X30.343 Y262.912 E0.35321
G1 X30.397 Y262.904 E0.00261
G1 X30.6 Y262.881 E0.00973
G1 X30.803 Y262.868 E0.00968
G1 X30.822 Y262.868 E0.00087
G1 X35.636 Y267.682 E0.32397
G1 X35.64 Y267.497 E0.00881
G1 X35.636 Y267.3 E0.00941
G1 X35.626 Y267.149 E0.00719
G1 X31.355 Y262.878 E0.28739
G1 X31.409 Y262.881 E0.00254
G1 X31.612 Y262.904 E0.00973
G1 X31.807 Y262.934 E0.00943
G1 X31.967 Y262.966 E0.00772
G1 X35.752 Y266.751 E0.25473
M107
G1 X35.594 Y266.07 F7200
M106 S255
G1 F1800
G1 X32.434 Y262.91 E0.21266
M107
G1 X33.354 Y263.306 F7200
M106 S255
G1 F1800
G1 X35.198 Y265.15 E0.12403
M107
G1 E-0.75 F3000
G1 Z78.2 F7200
G1 X37.869 Y266.62
G1 Z77.8
G1 E0.75 F3000
;TYPE:Internal infill
;WIDTH:0.45
;HEIGHT:0.2
G1 F4500
G1 X33.573 Y262.324 E0.1873
G1 X31.27 Y262.324 E0.07099
G1 X31.441 Y262.495 E0.00746
G1 X31.22 Y262.481 E0.00683
G1 X31.001 Y262.477 E0.00676
G1 X30.787 Y262.481 E0.0066
G1 X30.566 Y262.495 E0.00681
G1 X30.345 Y262.52 E0.00685
G1 X30.128 Y262.554 E0.00678
G1 X29.918 Y262.595 E0.00661
G1 X29.704 Y262.648 E0.00679
G1 X29.494 Y262.709 E0.00674
G1 X29.388 Y262.745 E0.00345
G1 X28.967 Y262.324 E0.01835
G1 X26.665 Y262.324 E0.07099
G1 X27.895 Y263.555 E0.05366
G1 X27.775 Y263.652 E0.00478
G1 X27.608 Y263.799 E0.00685
G1 X27.45 Y263.951 E0.00675
G1 X27.301 Y264.105 E0.00663
G1 X27.155 Y264.273 E0.00686
G1 X27.02 Y264.441 E0.00666
G1 X26.891 Y264.616 E0.0067
G1 X26.796 Y264.758 E0.00526
G1 X26.142 Y264.104 E0.02849
G1 X26.142 Y265.324 E0.0376
G1 X25.059 Y265.324 E0.03339
G1 X26.109 Y266.374 E0.04577
G1 X26.1 Y266.412 E0.0012
G1 X26.056 Y266.631 E0.00689
G1 X26.024 Y266.849 E0.00677
G1 X26 Y267.062 E0.00662
G1 X25.986 Y267.282 E0.00678
G1 X25.981 Y267.5 E0.00675
G1 X25.987 Y267.725 E0.00691
G1 X26 Y267.938 E0.00659
G1 X26.025 Y268.156 E0.00677
G1 X26.056 Y268.368 E0.00661
G1 X26.099 Y268.586 E0.00684
G1 X26.126 Y268.694 E0.00341
G1 X22.756 Y265.324 E0.1469
G1 X22.111 Y265.324 E0.01988
G1 X22.111 Y266.982 E0.0511
G1 X32.805 Y277.676 E0.46623
G1 X34.694 Y277.676 E0.05823
G1 X34.694 Y277.262 E0.01276
G1 X29.81 Y272.378 E0.21292
G1 X29.918 Y272.405 E0.00341
G1 X30.136 Y272.448 E0.00686
G1 X30.354 Y272.48 E0.00677
G1 X30.567 Y272.504 E0.00661
G1 X30.785 Y272.518 E0.00675
G1 X31.004 Y272.523 E0.00676
G1 X31.228 Y272.517 E0.00691
G1 X31.443 Y272.504 E0.00662
G1 X31.661 Y272.479 E0.00678
G1 X31.873 Y272.448 E0.00661
G1 X32.092 Y272.404 E0.00688
G1 X32.13 Y272.395 E0.0012
G1 X34.694 Y274.959 E0.11179
G1 X34.694 Y273.676 E0.03956
G1 X35.714 Y273.676 E0.03143
G1 X33.746 Y271.708 E0.08579
G1 X33.888 Y271.613 E0.00526
G1 X34.063 Y271.484 E0.0067
G1 X34.231 Y271.349 E0.00666
G1 X34.399 Y271.203 E0.00687
G1 X34.558 Y271.05 E0.0068
G1 X34.706 Y270.896 E0.00658
G1 X34.852 Y270.729 E0.00684
G1 X34.949 Y270.609 E0.00478
G1 X37.694 Y273.354 E0.11967
G1 X37.694 Y271.051 E0.07099
G1 X35.759 Y269.116 E0.08436
G1 X35.795 Y269.01 E0.00345
G1 X35.856 Y268.8 E0.00674
G1 X35.909 Y268.586 E0.0068
G1 X35.951 Y268.37 E0.00678
G1 X35.984 Y268.158 E0.00661
G1 X36.009 Y267.938 E0.00684
G1 X36.023 Y267.717 E0.00683
G1 X36.027 Y267.497 E0.00677
G1 X36.023 Y267.283 E0.00659
G1 X36.009 Y267.063 E0.00682
G1 X37.869 Y268.923 E0.08111
G1 E-0.75 F3000
G1 Z78.2 F7200
G1 X21.803 Y264.852
G1 Z77.8
G1 E0.75 F3000
;TYPE:Gap fill
;WIDTH:0.435112
G1 X21.803 Y264.656 E0.00582
G1 X21.803 Y263.54 E0.03313
G1 X21.803 Y262.425 E0.03313
G1 X21.823 Y262.268 E0.00471
;WIDTH:0.34468
G1 X21.843 Y262.111 E0.00362
G1 E-0.75
G1 Z78.2 F7200
G1 X25.857 Y55.775
G1 Z77.8
G1 E0.75 F3000
;TYPE:Internal perimeter
;WIDTH:0.45
G1 F4500
G1 X25.857 Y54.961 E0.0251
G1 X21.826 Y54.961 E0.12427
G1 X21.826 Y46.435 E0.26283
G1 X26.29 Y42.039 E0.19313
G1 X34.979 Y42.039 E0.26786
G1 X34.979 Y46.039 E0.12331
G1 X37.979 Y46.039 E0.09248
G1 X37.979 Y54.037 E0.24656
G1 X37.48 Y54.546 E0.02198
G1 X34.298 Y57.729 E0.13872
G1 X34.071 Y57.961 E0.01003
G1 X25.857 Y57.961 E0.25319
G1 X25.857 Y55.835 E0.06553
G1 X25.45 Y55.775 F7200
G1 F4500
G1 X25.45 Y55.368 E0.01255
G1 X22.186 Y55.368 E0.10063
G1 X22.186 Y58.491 E0.09627
G1 X21.419 Y57.735 E0.03318
G1 X21.419 Y46.265 E0.35362
G1 X26.123 Y41.632 E0.20353
G1 X37.79 Y41.632 E0.35967
G1 X38.538 Y42.368 E0.03234
G1 X35.386 Y42.368 E0.09716
G1 X35.386 Y45.632 E0.10063
G1 X38.386 Y45.632 E0.09248
G1 X38.386 Y54.203 E0.26424
G1 X37.769 Y54.833 E0.02717
G1 X34.588 Y58.015 E0.13872
G1 X34.241 Y58.368 E0.01524
G1 X25.45 Y58.368 E0.27101
G1 X25.45 Y55.835 E0.07808
G1 X25.043 Y55.775 F7200
;TYPE:External perimeter
G1 F3375
G1 X22.593 Y55.775 E0.07553
G1 X22.593 Y58.775 E0.09248
G1 X21.895 Y58.775 E0.02154
G1 X21.012 Y57.906 E0.03818
G1 X21.012 Y46.094 E0.36412
G1 X25.956 Y41.225 E0.21393
G1 X37.957 Y41.225 E0.36995
G1 X38.84 Y42.094 E0.0382
G1 X38.84 Y42.775 E0.02099
G1 X35.793 Y42.775 E0.09393
G1 X35.793 Y45.225 E0.07553
G1 X38.793 Y45.225 E0.09248
G1 X38.793 Y54.37 E0.28191
G1 X38.058 Y55.119 E0.03236
G1 X34.877 Y58.301 E0.13872
G1 X34.412 Y58.775 E0.02045
G1 X25.043 Y58.775 E0.28883
G1 X25.043 Y55.835 E0.09063
;WIPE_START
G1 X25.043 Y55.375 F7200
;WIPE_END
G1 X26.812 Y54.852
;TYPE:Internal bridge infill
;WIDTH:0.4
;HEIGHT:0.4
M106 S255
G1 F1800
G1 X28.654 Y56.693 E0.12389
M107
G1 X29.573 Y57.09 F7200
M106 S255
G1 F1800
G1 X26.415 Y53.932 E0.21251
M107
G1 E-0.75 F3000
G1 Z78.2 F7200
G1 X21.936 Y52.647
G1 Z77.8
G1 E0.75 F3000
;TYPE:Internal infill
;WIDTH:0.45
;HEIGHT:0.2
G1 F4500
G1 X23.965 Y54.676 E0.08844
G1 X26.142 Y54.676 E0.06713
G1 X26.142 Y56.853 E0.06713
G1 X26.965 Y57.676 E0.03586
G1 X29.268 Y57.676 E0.07099
G1 X22.111 Y50.52 E0.31199
G1 X22.111 Y48.217 E0.07099
G1 X25.998 Y52.103 E0.16944
G1 X26 Y52.063 E0.00125
G1 X26.024 Y51.85 E0.00661
G1 X26.056 Y51.632 E0.00677
G1 X26.099 Y51.414 E0.00686
G1 X26.153 Y51.196 E0.00693
G1 X26.213 Y50.993 E0.00652
G1 X26.282 Y50.786 E0.00671
G1 X26.364 Y50.576 E0.00695
G1 X26.451 Y50.38 E0.00661
G1 X26.492 Y50.295 E0.00292
G1 X22.434 Y46.237 E0.17693
G1 X23.594 Y45.094 E0.0502
G1 X27.45 Y48.95 E0.16812
G1 X27.611 Y48.797 E0.00684
G1 X27.775 Y48.653 E0.00673
G1 X27.945 Y48.516 E0.00675
G1 X28.123 Y48.385 E0.00678
G1 X28.306 Y48.263 E0.00681
G1 X28.489 Y48.152 E0.00657
G1 X28.685 Y48.044 E0.00691
G1 X28.794 Y47.991 E0.00373
G1 X24.754 Y43.951 E0.1761
G1 X25.914 Y42.809 E0.0502
G1 X30.764 Y47.659 E0.21145
G1 X32.436 Y47.911 F7200
;TYPE:Internal bridge infill
;WIDTH:0.4
;HEIGHT:0.4
M106 S255
G1 F1800
G1 X35.594 Y51.069 E0.21251
M107
G1 X35.752 Y51.751 F7200
M106 S255
G1 F1800
G1 X31.967 Y47.966 E0.25471
G1 X31.807 Y47.934 E0.00777
G1 X31.605 Y47.904 E0.00967
G1 X31.408 Y47.882 E0.00944
G1 X31.356 Y47.879 E0.00247
G1 X35.626 Y52.149 E0.2873
G1 X35.636 Y52.299 E0.00719
G1 X35.64 Y52.497 E0.00942
G1 X35.636 Y52.682 E0.00881
G1 X30.823 Y47.869 E0.32389
G1 X30.797 Y47.87 E0.00123
G1 X30.6 Y47.882 E0.0094
G1 X30.398 Y47.905 E0.00967
G1 X30.343 Y47.913 E0.00262
G1 X35.592 Y53.161 E0.35317
G1 X35.57 Y53.303 E0.00684
G1 X35.53 Y53.504 E0.00972
G1 X35.506 Y53.6 E0.00469
G1 X29.905 Y47.998 E0.37696
G1 X29.801 Y48.023 E0.00508
G1 X29.608 Y48.08 E0.00957
G1 X29.5 Y48.116 E0.00542
G1 X35.388 Y54.005 E0.39621
G1 X35.361 Y54.083 E0.00394
G1 X35.288 Y54.272 E0.00963
G1 X35.241 Y54.381 E0.00567
G1 X29.124 Y48.264 E0.4116
G1 X29.043 Y48.3 E0.00423
G1 X28.864 Y48.388 E0.00948
G1 X28.774 Y48.437 E0.00489
G1 X35.067 Y54.731 E0.42347
G1 X35.02 Y54.817 E0.00467
G1 X34.913 Y54.993 E0.00983
G1 X34.87 Y55.057 E0.00365
G1 X28.447 Y48.634 E0.43217
G1 X28.345 Y48.703 E0.00586
G1 X28.182 Y48.823 E0.00965
G1 X28.143 Y48.854 E0.00234
G1 X34.651 Y55.361 E0.4379
G1 X34.557 Y55.478 E0.00714
G1 X34.411 Y55.645 E0.01054
G1 X27.86 Y49.094 E0.4408
G1 X27.726 Y49.222 E0.00881
G1 X27.598 Y49.356 E0.00881
G1 X34.149 Y55.907 E0.4408
G1 X33.982 Y56.053 E0.01054
G1 X33.865 Y56.147 E0.00713
G1 X27.358 Y49.639 E0.4379
G1 X27.327 Y49.678 E0.00234
G1 X27.207 Y49.841 E0.00965
G1 X27.139 Y49.943 E0.00586
G1 X33.561 Y56.366 E0.43217
G1 X33.498 Y56.408 E0.00363
G1 X33.321 Y56.516 E0.00983
G1 X33.235 Y56.563 E0.00468
G1 X26.941 Y50.27 E0.42347
G1 X26.891 Y50.36 E0.00493
G1 X26.802 Y50.544 E0.00971
G1 X26.768 Y50.62 E0.00396
G1 X32.885 Y56.737 E0.4116
G1 X32.776 Y56.784 E0.00566
G1 X32.592 Y56.855 E0.00937
G1 X32.509 Y56.884 E0.00421
G1 X26.621 Y50.996 E0.39621
G1 X26.583 Y51.109 E0.00569
G1 X26.527 Y51.297 E0.00932
G1 X26.502 Y51.4 E0.00507
G1 X32.104 Y57.002 E0.37696
G1 X32.009 Y57.026 E0.00466
G1 X31.813 Y57.065 E0.00948
G1 X31.665 Y57.088 E0.00711
G1 X26.417 Y51.839 E0.35317
G1 X26.408 Y51.9 E0.00289
G1 X26.386 Y52.097 E0.00943
G1 X26.373 Y52.299 E0.00964
G1 X26.373 Y52.319 E0.00095
G1 X31.186 Y57.132 E0.3239
G1 X31.007 Y57.136 E0.00854
G1 X30.804 Y57.132 E0.00967
G1 X30.653 Y57.122 E0.0072
G1 X26.383 Y52.852 E0.28731
G1 X26.386 Y52.905 E0.0025
G1 X26.409 Y53.107 E0.00968
G1 X26.438 Y53.303 E0.00942
G1 X26.47 Y53.463 E0.00775
G1 X30.255 Y57.248 E0.25472
M107
G1 X31.237 Y57.343 F7200
;TYPE:Internal infill
;WIDTH:0.45
;HEIGHT:0.2
G1 F4500
G1 X31.57 Y57.676 E0.01454
G1 X33.873 Y57.676 E0.07099
G1 X33.21 Y57.012 E0.02893
G1 X33.327 Y56.954 E0.00405
G1 X33.514 Y56.852 E0.00658
G1 X33.707 Y56.735 E0.00693
G1 X33.887 Y56.613 E0.0067
G1 X34.06 Y56.488 E0.00659
G1 X34.231 Y56.35 E0.00677
G1 X34.401 Y56.202 E0.00697
G1 X34.554 Y56.054 E0.00654
G1 X35.062 Y56.562 E0.02216
G1 X36.211 Y55.408 E0.0502
G1 X35.514 Y54.711 E0.0304
G1 X35.556 Y54.625 E0.00295
G1 X35.647 Y54.419 E0.00695
G1 X35.725 Y54.215 E0.00672
G1 X35.795 Y54.011 E0.00667
G1 X35.857 Y53.797 E0.00686
G1 X35.908 Y53.588 E0.00664
G1 X35.951 Y53.371 E0.00681
G1 X35.984 Y53.159 E0.00661
G1 X36.009 Y52.938 E0.00685
G1 X36.011 Y52.905 E0.00102
G1 X37.36 Y54.255 E0.05883
G1 X37.694 Y53.919 E0.01459
