; generated by PrusaSlicer 2.6.0+win64 on 2023-08-03 at 18:37:48 UTC


;
;

;
;
; 

; external perimeters extrusion width = 0.45mm
; perimeters extrusion width = 0.45mm
; infill extrusion width = 0.45mm
; solid infill extrusion width = 0.45mm
; top infill extrusion width = 0.40mm
; first layer extrusion width = 0.42mm

; external perimeters extrusion width = 0.45mm
; perimeters extrusion width = 0.45mm
; infill extrusion width = 0.45mm
; solid infill extrusion width = 0.45mm
; top infill extrusion width = 0.40mm
; first layer extrusion width = 0.42mm

; external perimeters extrusion width = 0.45mm
; perimeters extrusion width = 0.45mm
; infill extrusion width = 0.45mm
; solid infill extrusion width = 0.45mm
; top infill extrusion width = 0.40mm
; first layer extrusion width = 0.42mm

;TYPE:Custom
; printing object STARTGCODE
M104 S0;
M140 S0;
START_PRINT BED_TEMP_FL=60 EXTRUDER_TEMP=210;
G21 ; set units to millimeters
G90 ; use absolute coordinates
M83 ; use relative distances for extrusion
; Filament gcode
SET_PRESSURE_ADVANCE ADVANCE=0.46
M107
;LAYER_CHANGE
;Z:0.2
;HEIGHT:0.2
;BEFORE_LAYER_CHANGE
M117 layer 0 at 0.2mm
G92 E0 ;
G1 E-3 F1800
G1 Z.6 F12000
;AFTER_LAYER_CHANGE
M117 layer 0 at 0.2mm
G1 X-67.944 Y.001
G1 Z.2
G1 E3 F1800
;TYPE:Skirt/Brim
;WIDTH:0.42
G1 F3000
G1 X-67.945 Y-48.466 E1.51357
G1 X-67.716 Y-52.549 E.12771
G1 X-67.338 Y-55.383 E.08929
G1 X-66.98 Y-57.291 E.06062
G1 X-65.979 Y-61.188 E.12565
G1 X-65.06 Y-63.896 E.0893
G1 X-64.259 Y-65.89 E.06711
G1 X-63.454 Y-67.656 E.06061
G1 X-62.132 Y-70.192 E.08931
G1 X-59.971 Y-73.663 E.12769
G1 X-58.721 Y-75.391 E.0666
G1 X-57.089 Y-77.417 E.08124
G1 X-55.667 Y-79.007 E.06661
G1 X-54.148 Y-80.551 E.06764
G1 X-52.19 Y-82.338 E.08278
G1 X-50.543 Y-83.692 E.06658
G1 X-47.281 Y-86.02 E.12515
G1 X-43.754 Y-88.089 E.1277
G1 X-41.844 Y-89.038 E.0666
G1 X-39.412 Y-90.094 E.0828
G1 X-37.382 Y-90.849 E.06764
G1 X-35.35 Y-91.495 E.06659
G1 X-32.833 Y-92.156 E.08127
G1 X-30.745 Y-92.589 E.06659
G1 X-26.693 Y-93.142 E.12771
G1 X-23.839 Y-93.311 E.08928
G1 X-21.963 Y-93.323 E.05859
G1 X-19.75 Y-93.238 E.06916
G1 X-16.822 Y-92.959 E.09185
G1 X-13.999 Y-92.506 E.08929
G1 X-11.835 Y-92.032 E.06918
G1 X-9.049 Y-91.258 E.0903
G1 X-6.543 Y-90.391 E.08281
G1 X-4.491 Y-89.558 E.06916
G1 X-1.848 Y-88.305 E.09134
G1 X.016 Y-87.291 E.06627
G1 X78.823 Y-41.793 E2.84176
G1 X81.278 Y-40.275 E.09014
G1 X82.872 Y-39.168 E.06061
G1 X85.144 Y-37.404 E.08983
G1 X86.815 Y-35.951 E.06915
G1 X88.863 Y-33.956 E.08929
G1 X90.835 Y-31.773 E.09187
G1 X92.224 Y-30.048 E.06916
G1 X93.899 Y-27.71 E.08982
G1 X95.447 Y-25.229 E.09132
G1 X96.51 Y-23.285 E.06919
G1 X97.658 Y-20.896 E.08277
G1 X98.747 Y-18.216 E.09034
G1 X99.466 Y-16.121 E.06917
G1 X100.26 Y-13.289 E.09185
G1 X100.865 Y-10.427 E.09135
G1 X101.279 Y-7.581 E.08981
G1 X101.475 Y-5.375 E.06916
G1 X101.567 Y-2.435 E.09186
G1 X101.475 Y.423 E.0893
G1 X101.191 Y3.35 E.09184
G1 X100.853 Y5.539 E.06917
G1 X100.26 Y8.336 E.08929
G1 X99.466 Y11.169 E.09188
G1 X98.747 Y13.264 E.06917
G1 X97.658 Y15.943 E.09031
G1 X96.51 Y18.333 E.0828
G1 X95.447 Y20.276 E.06916
G1 X93.899 Y22.758 E.09135
G1 X92.224 Y25.095 E.08979
G1 X90.835 Y26.821 E.06919
G1 X88.92 Y28.944 E.08929
G1 X86.815 Y30.998 E.09185
G1 X85.144 Y32.452 E.06917
G1 X82.872 Y34.215 E.08981
G1 X81.278 Y35.322 E.06061
G1 X78.823 Y36.84 E.09014
G1 X.016 Y82.338 E2.84176
G1 X-1.906 Y83.382 E.06831
G1 X-4.566 Y84.638 E.09186
G1 X-7.224 Y85.692 E.08929
G1 X-10.023 Y86.598 E.09187
G1 X-12.117 Y87.148 E.06761
G1 X-14.983 Y87.732 E.09134
G1 X-17.881 Y88.13 E.09135
G1 X-20.089 Y88.304 E.06917
G1 X-22.739 Y88.375 E.08279
G1 X-25.969 Y88.249 E.10095
G1 X-29.661 Y87.821 E.11607
G1 X-32.833 Y87.204 E.10091
G1 X-36.417 Y86.217 E.11609
G1 X-39.457 Y85.123 E.1009
G1 X-42.848 Y83.6 E.11609
G1 X-46.309 Y81.68 E.1236
G1 X-49.042 Y79.864 E.10247
G1 X-51.983 Y77.564 E.11659
G1 X-54.871 Y74.882 E.12308
G1 X-57.089 Y72.465 E.10245
G1 X-59.356 Y69.582 E.11453
G1 X-61.179 Y66.854 E.10246
G1 X-62.98 Y63.659 E.11454
G1 X-64.365 Y60.684 E.10248
G1 X-65.657 Y57.252 E.11452
G1 X-66.572 Y54.101 E.10247
G1 X-67.324 Y50.511 E.11454
G1 X-67.747 Y47.258 E.10244
G1 X-67.944 Y43.596 E.11453
G1 X-67.944 Y.061 E1.35955
G1 X-67.567 Y.061 F12000
G1 F3000
G1 X-67.567 Y-48.466 E1.51544
G1 X-67.341 Y-52.508 E.12642
G1 X-66.965 Y-55.325 E.08875
G1 X-66.611 Y-57.21 E.0599
G1 X-65.62 Y-61.074 E.12457
G1 X-64.706 Y-63.766 E.08878
G1 X-63.911 Y-65.743 E.06654
G1 X-63.116 Y-67.489 E.05991
G1 X-61.802 Y-70.01 E.08878
G1 X-59.662 Y-73.446 E.12641
G1 X-58.423 Y-75.161 E.06607
G1 X-56.801 Y-77.174 E.08073
G1 X-55.39 Y-78.752 E.06611
G1 X-53.885 Y-80.281 E.067
G1 X-51.942 Y-82.054 E.08214
G1 X-50.307 Y-83.398 E.0661
G1 X-47.072 Y-85.706 E.1241
G1 X-43.581 Y-87.754 E.1264
G1 X-41.686 Y-88.696 E.06609
G1 X-39.273 Y-89.743 E.08214
G1 X-37.262 Y-90.491 E.067
G1 X-35.246 Y-91.133 E.06607
G1 X-32.745 Y-91.79 E.08075
G1 X-30.673 Y-92.219 E.06608
G1 X-26.662 Y-92.766 E.12642
G1 X-23.824 Y-92.934 E.08878
G1 X-21.965 Y-92.946 E.05806
G1 X-19.777 Y-92.862 E.06838
G1 X-16.873 Y-92.585 E.0911
G1 X-14.066 Y-92.135 E.08878
G1 X-11.927 Y-91.667 E.06838
G1 X-9.16 Y-90.897 E.08969
G1 X-6.674 Y-90.038 E.08214
G1 X-4.645 Y-89.214 E.06839
G1 X-2.023 Y-87.971 E.09062
G1 X-.173 Y-86.964 E.06578
G1 X78.634 Y-41.466 E2.84176
G1 X81.073 Y-39.958 E.08955
G1 X82.648 Y-38.864 E.05989
G1 X84.905 Y-37.112 E.08923
G1 X86.558 Y-35.675 E.0684
G1 X88.646 Y-33.638 E.0911
G1 X90.55 Y-31.527 E.08878
G1 X91.923 Y-29.821 E.06839
G1 X93.587 Y-27.498 E.08924
G1 X95.123 Y-25.036 E.09062
G1 X96.174 Y-23.114 E.06841
G1 X97.313 Y-20.744 E.08212
G1 X98.395 Y-18.083 E.08971
G1 X99.105 Y-16.011 E.0684
G1 X99.892 Y-13.203 E.09107
G1 X100.493 Y-10.364 E.09062
G1 X100.904 Y-7.536 E.08924
G1 X101.098 Y-5.355 E.06838
G1 X101.19 Y-2.439 E.09111
G1 X101.098 Y.402 E.08877
G1 X100.817 Y3.305 E.09108
G1 X100.483 Y5.47 E.06841
G1 X99.892 Y8.25 E.08876
G1 X99.105 Y11.059 E.0911
G1 X98.395 Y13.131 E.0684
G1 X97.313 Y15.791 E.08968
G1 X96.174 Y18.162 E.08214
G1 X95.123 Y20.083 E.06838
G1 X93.587 Y22.545 E.09062
G1 X91.923 Y24.868 E.08924
G1 X90.55 Y26.574 E.06839
G1 X88.646 Y28.685 E.08878
G1 X86.558 Y30.722 E.0911
G1 X84.905 Y32.16 E.06842
G1 X82.648 Y33.912 E.08923
G1 X81.073 Y35.006 E.05989
G1 X78.634 Y36.514 E.08955
G1 X-.173 Y82.011 E2.84175
G1 X-2.023 Y83.018 E.06578
G1 X-4.713 Y84.291 E.09294
G1 X-7.356 Y85.338 E.08878
G1 X-10.13 Y86.237 E.09106
G1 X-12.206 Y86.782 E.06703
G1 X-15.049 Y87.361 E.09061
G1 X-17.924 Y87.755 E.09062
G1 X-20.108 Y87.928 E.06842
G1 X-22.737 Y87.997 E.08213
G1 X-25.938 Y87.873 E.10004
G1 X-29.6 Y87.448 E.11513
G1 X-32.745 Y86.837 E.10005
G1 X-36.3 Y85.858 E.11515
G1 X-39.315 Y84.774 E.10006
G1 X-42.679 Y83.264 E.11515
G1 X-46.115 Y81.357 E.12272
G1 X-48.82 Y79.559 E.10143
G1 X-51.736 Y77.279 E.1156
G1 X-54.605 Y74.615 E.12226
G1 X-56.801 Y72.221 E.10145
G1 X-59.053 Y69.358 E.11375
G1 X-60.857 Y66.658 E.10141
G1 X-62.646 Y63.484 E.11378
G1 X-64.017 Y60.54 E.10142
G1 X-65.323 Y57.06 E.11608
G1 X-66.205 Y54.011 E.09912
G1 X-66.953 Y50.446 E.11376
G1 X-67.372 Y47.225 E.10144
G1 X-67.567 Y43.587 E.11377
G1 X-67.567 Y.121 E1.35739
; printing object Alcadors - Alcadors id:1 copy 0
G1 E-1.5 F1800
;WIPE_START
G1 F9600
G1 X-67.567 Y-8.3 E-1.5
;WIPE_END
G1 Z.8 F12000
G1 X55.378 Y38.149
G1 Z.2
G1 E3 F1800
;TYPE:Perimeter
;WIDTH:0.419999
G1 F3750
G1 X53.47 Y38.066 E.05964
G1 X51.552 Y37.891 E.06015
G1 X49.899 Y37.665 E.0521
G1 X48.004 Y37.321 E.06015
G1 X46.377 Y36.951 E.05211
G1 X44.52 Y36.44 E.06015
G1 X42.927 Y35.926 E.05227
G1 X42.03 Y35.604 E.02976
G1 X40.474 Y34.987 E.05227
G1 X38.719 Y34.2 E.06006
G1 X37.001 Y33.328 E.06017
G1 X35.761 Y32.636 E.04435
G1 X34.943 Y32.147 E.02976
G1 X33.323 Y31.099 E.06025
G1 X31.96 Y30.128 E.05226
G1 X31.202 Y29.55 E.02977
G1 X29.904 Y28.492 E.05229
G1 X28.466 Y27.211 E.06014
G1 X27.271 Y26.047 E.0521
G1 X25.95 Y24.641 E.06025
G1 X25.323 Y23.923 E.02977
G1 X24.419 Y22.827 E.04437
G1 X23.255 Y21.293 E.06014
G1 X22.165 Y19.703 E.0602
G1 X21.655 Y18.898 E.02976
G1 X20.93 Y17.677 E.04435
G1 X20.013 Y15.984 E.06013
G1 X19.18 Y14.249 E.0601
G1 X18.524 Y12.714 E.05213
G1 X17.932 Y11.153 E.05214
G1 X17.329 Y9.325 E.06011
G1 X16.815 Y7.47 E.06011
G1 X16.492 Y6.087 E.04435
G1 X16.301 Y5.153 E.02977
G1 X15.984 Y3.251 E.06022
G1 X15.759 Y1.339 E.06012
G1 X15.65 Y-.077 E.04435
G1 X15.604 Y-1.029 E.02976
G1 X15.581 Y-2.959 E.06028
G1 X15.635 Y-4.626 E.05209
G1 X15.782 Y-6.546 E.06013
G1 X15.984 Y-8.208 E.05228
G1 X16.129 Y-9.15 E.02976
G1 X16.439 Y-10.795 E.05228
G1 X16.877 Y-12.67 E.06013
G1 X17.33 Y-14.282 E.05229
G1 X17.618 Y-15.19 E.02975
G1 X18.175 Y-16.769 E.05229
G1 X18.895 Y-18.555 E.06014
G1 X19.588 Y-20.079 E.05228
G1 X20.011 Y-20.933 E.02976
G1 X20.802 Y-22.408 E.05227
G1 X21.786 Y-24.064 E.06016
G1 X22.701 Y-25.459 E.0521
G1 X23.83 Y-27.023 E.06024
G1 X24.416 Y-27.775 E.02977
G1 X25.319 Y-28.871 E.04435
G1 X26.604 Y-30.306 E.06015
G1 X27.957 Y-31.679 E.0602
G1 X28.65 Y-32.333 E.02976
G1 X29.711 Y-33.278 E.04437
G1 X31.199 Y-34.5 E.06013
G1 X32.743 Y-35.648 E.06008
G1 X34.125 Y-36.584 E.05213
G1 X35.545 Y-37.463 E.05215
G1 X37.225 Y-38.402 E.0601
G1 X38.948 Y-39.26 E.06011
G1 X40.244 Y-39.841 E.04435
G1 X41.125 Y-40.206 E.02978
G1 X42.931 Y-40.88 E.0602
G1 X44.766 Y-41.464 E.06014
G1 X46.135 Y-41.841 E.04434
G1 X47.061 Y-42.067 E.02977
G1 X48.951 Y-42.458 E.06027
G1 X50.598 Y-42.722 E.05209
G1 X52.511 Y-42.943 E.06014
G1 X54.181 Y-43.061 E.05228
G1 X55.133 Y-43.098 E.02975
G1 X56.807 Y-43.107 E.05228
G1 X58.73 Y-43.034 E.0601
G1 X60.648 Y-42.867 E.06012
G1 X62.058 Y-42.689 E.04438
G1 X62.999 Y-42.541 E.02975
G1 X64.893 Y-42.174 E.06025
G1 X66.521 Y-41.783 E.05229
G1 X67.44 Y-41.53 E.02977
G1 X69.039 Y-41.035 E.05227
G1 X70.851 Y-40.384 E.06013
G1 X72.395 Y-39.751 E.05211
G1 X74.146 Y-38.941 E.06025
G1 X74.996 Y-38.509 E.02978
G1 X76.244 Y-37.83 E.04437
G1 X77.897 Y-36.843 E.06012
G1 X79.502 Y-35.776 E.06019
G1 X80.276 Y-35.22 E.02976
G1 X81.406 Y-34.359 E.04436
G1 X82.889 Y-33.13 E.06015
G1 X84.309 Y-31.833 E.06006
G1 X85.492 Y-30.654 E.05216
G1 X86.625 Y-29.427 E.05216
G1 X87.867 Y-27.958 E.06007
G1 X89.037 Y-26.429 E.06012
G1 X89.854 Y-25.267 E.04436
G1 X90.381 Y-24.472 E.02979
G1 X91.386 Y-22.827 E.0602
G1 X92.309 Y-21.138 E.06011
G1 X92.939 Y-19.864 E.04438
G1 X93.338 Y-18.999 E.02975
G1 X94.081 Y-17.218 E.06026
G1 X94.654 Y-15.651 E.0521
G1 X95.235 Y-13.815 E.06014
G1 X95.669 Y-12.199 E.05225
G1 X95.886 Y-11.271 E.02976
G1 X96.214 Y-9.629 E.05229
G1 X96.508 Y-7.726 E.06013
G1 X96.69 Y-6.068 E.05209
G1 X96.814 Y-4.142 E.06027
G1 X96.841 Y-2.933 E.03777
G1 X96.841 Y-1.769 E.03635
G1 X96.764 Y.155 E.06013
G1 X96.593 Y2.071 E.06007
G1 X96.373 Y3.725 E.05211
G1 X96.032 Y5.627 E.06034
G1 X95.888 Y6.309 E.02177
G1 X95.491 Y7.936 E.0523
G1 X94.955 Y9.786 E.06015
G1 X94.418 Y11.365 E.05208
G1 X93.72 Y13.16 E.06014
G1 X93.046 Y14.686 E.0521
G1 X92.192 Y16.412 E.06014
G1 X91.384 Y17.878 E.05227
G1 X90.897 Y18.697 E.02976
G1 X89.995 Y20.108 E.0523
G1 X88.887 Y21.683 E.06014
G1 X87.864 Y23.008 E.05228
G1 X87.258 Y23.744 E.02977
G1 X86.152 Y25 E.05226
G1 X84.816 Y26.387 E.06014
G1 X83.603 Y27.541 E.05228
G1 X82.892 Y28.175 E.02975
G1 X81.606 Y29.248 E.0523
G1 X80.075 Y30.415 E.06012
G1 X78.705 Y31.367 E.0521
G1 X77.073 Y32.396 E.06025
G1 X76.249 Y32.875 E.02976
G1 X75.001 Y33.554 E.04437
G1 X73.273 Y34.405 E.06015
G1 X71.505 Y35.172 E.06018
G1 X70.617 Y35.519 E.02977
G1 X69.281 Y35.999 E.04433
G1 X67.444 Y36.577 E.06014
G1 X65.582 Y37.064 E.0601
G1 X63.952 Y37.416 E.05208
G1 X62.053 Y37.737 E.06014
G1 X60.39 Y37.944 E.05233
G1 X59.696 Y38.009 E.02177
G1 X57.77 Y38.129 E.06026
G1 X55.438 Y38.15 E.07283
G1 X55.372 Y38.526 F12000
G1 F3750
G1 X53.444 Y38.442 E.06027
G1 X51.509 Y38.266 E.06068
G1 X49.84 Y38.038 E.05261
G1 X47.928 Y37.691 E.06068
G1 X46.285 Y37.316 E.05263
G1 X44.412 Y36.802 E.06065
G1 X42.806 Y36.283 E.05271
G1 X41.897 Y35.957 E.03016
G1 X40.327 Y35.335 E.05274
G1 X38.556 Y34.54 E.06062
G1 X36.824 Y33.661 E.06066
G1 X35.572 Y32.963 E.04476
G1 X34.744 Y32.468 E.03013
G1 X33.111 Y31.411 E.06075
G1 X31.736 Y30.431 E.05273
G1 X30.968 Y29.846 E.03015
G1 X29.659 Y28.779 E.05274
G1 X28.209 Y27.487 E.06065
G1 X27.002 Y26.312 E.0526
G1 X25.671 Y24.894 E.06073
G1 X25.036 Y24.167 E.03014
G1 X24.124 Y23.061 E.04477
G1 X22.949 Y21.514 E.06067
G1 X21.85 Y19.911 E.06069
G1 X21.334 Y19.095 E.03015
G1 X20.602 Y17.864 E.04473
G1 X19.677 Y16.155 E.06069
G1 X18.837 Y14.405 E.06062
G1 X18.174 Y12.855 E.05265
G1 X17.577 Y11.278 E.05266
G1 X16.968 Y9.435 E.06062
G1 X16.45 Y7.563 E.06066
G1 X16.123 Y6.167 E.04478
G1 X15.93 Y5.222 E.03012
G1 X15.61 Y3.304 E.06072
G1 X15.383 Y1.375 E.06066
G1 X15.274 Y-.054 E.04476
G1 X15.227 Y-1.018 E.03014
G1 X15.204 Y-2.962 E.06071
G1 X15.258 Y-4.647 E.05265
G1 X15.407 Y-6.583 E.06064
G1 X15.61 Y-8.259 E.05272
G1 X15.758 Y-9.213 E.03015
G1 X16.07 Y-10.873 E.05275
G1 X16.512 Y-12.764 E.06065
G1 X16.969 Y-14.39 E.05275
G1 X17.26 Y-15.31 E.03013
G1 X17.822 Y-16.902 E.05272
G1 X18.548 Y-18.704 E.06067
G1 X19.248 Y-20.241 E.05274
G1 X19.676 Y-21.106 E.03014
G1 X20.474 Y-22.594 E.05273
G1 X21.466 Y-24.263 E.06063
G1 X22.391 Y-25.672 E.05264
G1 X23.529 Y-27.249 E.06073
G1 X24.121 Y-28.011 E.03013
G1 X25.033 Y-29.117 E.04477
G1 X26.329 Y-30.564 E.06066
G1 X27.693 Y-31.948 E.06068
G1 X28.395 Y-32.611 E.03015
G1 X29.466 Y-33.564 E.04477
G1 X30.967 Y-34.797 E.06066
G1 X32.525 Y-35.955 E.06062
G1 X33.92 Y-36.901 E.05264
G1 X35.354 Y-37.788 E.05266
G1 X37.048 Y-38.736 E.06062
G1 X38.787 Y-39.601 E.06065
G1 X40.095 Y-40.187 E.04476
G1 X40.987 Y-40.557 E.03016
G1 X42.808 Y-41.236 E.06069
G1 X44.659 Y-41.826 E.06067
G1 X46.041 Y-42.206 E.04476
G1 X46.978 Y-42.435 E.03012
G1 X48.883 Y-42.829 E.06075
G1 X50.546 Y-43.095 E.05259
G1 X52.476 Y-43.318 E.06067
G1 X54.16 Y-43.438 E.05272
G1 X55.125 Y-43.475 E.03016
G1 X56.813 Y-43.484 E.05272
G1 X58.753 Y-43.41 E.06063
G1 X60.688 Y-43.242 E.06066
G1 X62.11 Y-43.062 E.04476
G1 X63.064 Y-42.913 E.03015
G1 X64.973 Y-42.542 E.06073
G1 X66.615 Y-42.148 E.05273
G1 X67.546 Y-41.892 E.03015
G1 X69.158 Y-41.392 E.05271
G1 X70.987 Y-40.736 E.06068
G1 X72.546 Y-40.097 E.05262
G1 X74.31 Y-39.28 E.06071
G1 X75.171 Y-38.843 E.03015
G1 X76.43 Y-38.158 E.04476
G1 X78.098 Y-37.162 E.06067
G1 X79.716 Y-36.086 E.06068
G1 X80.5 Y-35.523 E.03014
G1 X81.64 Y-34.654 E.04476
G1 X83.136 Y-33.415 E.06066
G1 X84.57 Y-32.106 E.06063
G1 X85.764 Y-30.916 E.05264
G1 X86.907 Y-29.677 E.05264
G1 X88.161 Y-28.194 E.06065
G1 X89.341 Y-26.652 E.06064
G1 X90.166 Y-25.48 E.04476
G1 X90.699 Y-24.675 E.03015
G1 X91.712 Y-23.016 E.0607
G1 X92.643 Y-21.312 E.06064
G1 X93.28 Y-20.027 E.04479
G1 X93.683 Y-19.15 E.03014
G1 X94.432 Y-17.356 E.06071
G1 X95.011 Y-15.773 E.05264
G1 X95.597 Y-13.921 E.06066
G1 X96.035 Y-12.29 E.05274
G1 X96.255 Y-11.351 E.03012
G1 X96.586 Y-9.695 E.05274
G1 X96.882 Y-7.775 E.06067
G1 X97.066 Y-6.1 E.05262
G1 X97.191 Y-4.16 E.06071
G1 X97.218 Y-2.933 E.03833
G1 X97.218 Y-1.761 E.0366
G1 X97.14 Y.179 E.06063
G1 X96.968 Y2.113 E.06063
G1 X96.746 Y3.783 E.05261
G1 X96.402 Y5.699 E.06079
G1 X96.256 Y6.392 E.02212
G1 X95.856 Y8.033 E.05275
G1 X95.315 Y9.899 E.06067
G1 X94.773 Y11.494 E.05261
G1 X94.068 Y13.305 E.06069
G1 X93.388 Y14.846 E.0526
G1 X92.526 Y16.587 E.06067
G1 X91.711 Y18.066 E.05274
G1 X91.218 Y18.895 E.03012
G1 X90.308 Y20.318 E.05275
G1 X89.191 Y21.907 E.06066
G1 X88.159 Y23.244 E.05274
G1 X87.545 Y23.988 E.03012
G1 X86.429 Y25.255 E.05273
G1 X85.082 Y26.655 E.06067
G1 X83.859 Y27.819 E.05273
G1 X83.138 Y28.461 E.03015
G1 X81.842 Y29.543 E.05272
G1 X80.297 Y30.72 E.06065
G1 X78.913 Y31.682 E.05264
G1 X77.268 Y32.719 E.06073
G1 X76.434 Y33.204 E.03013
G1 X75.174 Y33.889 E.04479
G1 X73.432 Y34.747 E.06064
G1 X71.649 Y35.52 E.06069
G1 X70.75 Y35.872 E.03015
G1 X69.401 Y36.357 E.04477
G1 X67.548 Y36.939 E.06065
G1 X65.67 Y37.431 E.06063
G1 X64.023 Y37.786 E.05262
G1 X62.108 Y38.11 E.06065
G1 X60.431 Y38.319 E.05278
G1 X59.726 Y38.385 E.02211
G1 X57.784 Y38.506 E.06076
G1 X55.432 Y38.527 E.07345
G1 X55.366 Y38.903 F12000
;TYPE:External perimeter
G1 F2812.5
G1 X53.417 Y38.818 E.06092
