; generated by PrusaSlicer 2.6.0+win64 on 2023-08-03 at 08:16:22 UTC


;
;

;
;
; 

; external perimeters extrusion width = 0.45mm
; perimeters extrusion width = 0.45mm
; infill extrusion width = 0.45mm
; solid infill extrusion width = 0.45mm
; top infill extrusion width = 0.40mm
; first layer extrusion width = 0.42mm

;TYPE:Custom
; printing object STARTGCODE
M104 S0;
M140 S0;
START_PRINT BED_TEMP_FL=60 EXTRUDER_TEMP=210;
G21 ; set units to millimeters
G90 ; use absolute coordinates
M83 ; use relative distances for extrusion
; Filament gcode
;SET_PRESSURE_ADVANCE ADVANCE=0.36
M107
;LAYER_CHANGE
;Z:0.2
;HEIGHT:0.2
;BEFORE_LAYER_CHANGE
M117 layer 0 at 0.2mm
G92 E0 ;
G1 E-2 F1800
G1 Z.6 F12000
;AFTER_LAYER_CHANGE
M117 layer 0 at 0.2mm
G1 X-76.211 Y19.743
G1 Z.2
G1 E2 F1800
;TYPE:Skirt/Brim
;WIDTH:0.42
G1 F3000
G1 X-76.728 Y17.748 E.06462
G1 X-77.552 Y13.708 E.12928
G1 X-77.992 Y10.928 E.08825
G1 X-78.457 Y6.831 E.12928
G1 X-78.705 Y2.781 E.12722
G1 X-78.743 Y-1.342 E.12928
G1 X-78.644 Y-4.154 E.08822
G1 X-78.319 Y-8.265 E.1293
G1 X-77.79 Y-12.288 E.12722
G1 X-77.04 Y-16.342 E.12927
G1 X-76.407 Y-19.084 E.08823
G1 X-75.303 Y-23.057 E.12929
G1 X-73.993 Y-26.966 E.12926
G1 X-72.481 Y-30.802 E.12928
G1 X-70.798 Y-34.494 E.12722
G1 X-68.896 Y-38.152 E.12927
G1 X-66.805 Y-41.705 E.12926
G1 X-64.53 Y-45.145 E.12931
G1 X-62.876 Y-47.422 E.08824
G1 X-60.308 Y-50.647 E.12926
G1 X-57.619 Y-53.686 E.12723
G1 X-54.731 Y-56.628 E.12926
G1 X-51.692 Y-59.415 E.12929
G1 X-49.536 Y-61.224 E.08824
G1 X-46.317 Y-63.694 E.12722
G1 X-42.92 Y-66.031 E.12928
G1 X-39.405 Y-68.187 E.12929
G1 X-36.944 Y-69.551 E.08822
G1 X-33.253 Y-71.389 E.12928
G1 X-29.471 Y-73.032 E.12929
G1 X-25.671 Y-74.453 E.1272
G1 X-21.739 Y-75.694 E.12928
G1 X-17.748 Y-76.728 E.12927
G1 X-13.708 Y-77.552 E.12928
G1 X-10.928 Y-77.992 E.08825
G1 X-6.831 Y-78.457 E.12928
G1 X-2.781 Y-78.705 E.12722
G1 X1.342 Y-78.743 E.12928
G1 X4.154 Y-78.644 E.08822
G1 X8.265 Y-78.319 E.1293
G1 X12.352 Y-77.779 E.12926
G1 X16.342 Y-77.04 E.12723
G1 X19.084 Y-76.407 E.08823
G1 X23.057 Y-75.303 E.12929
G1 X26.966 Y-73.993 E.12926
G1 X30.802 Y-72.481 E.12928
G1 X34.494 Y-70.798 E.12722
G1 X38.152 Y-68.896 E.12927
G1 X41.705 Y-66.805 E.12926
G1 X45.145 Y-64.53 E.12931
G1 X47.422 Y-62.876 E.08824
G1 X50.647 Y-60.308 E.12926
G1 X53.686 Y-57.619 E.12723
G1 X56.628 Y-54.731 E.12926
G1 X59.415 Y-51.692 E.12929
G1 X61.224 Y-49.536 E.08824
G1 X63.694 Y-46.317 E.12722
G1 X66.031 Y-42.92 E.12928
G1 X68.187 Y-39.405 E.12929
G1 X70.155 Y-35.783 E.12925
G1 X71.389 Y-33.253 E.08826
G1 X73.032 Y-29.471 E.12929
G1 X74.453 Y-25.671 E.1272
G1 X75.694 Y-21.739 E.12928
G1 X76.728 Y-17.748 E.12927
G1 X77.552 Y-13.708 E.12928
G1 X78.163 Y-9.63 E.12929
G1 X78.457 Y-6.831 E.08824
G1 X78.705 Y-2.781 E.12722
G1 X78.743 Y1.342 E.12928
G1 X78.644 Y4.154 E.08822
G1 X78.319 Y8.265 E.1293
G1 X77.79 Y12.288 E.12722
G1 X77.04 Y16.342 E.12927
G1 X76.079 Y20.351 E.12926
G1 X74.91 Y24.305 E.12928
G1 X73.535 Y28.192 E.12927
G1 X72.481 Y30.802 E.08826
G1 X70.798 Y34.494 E.12722
G1 X68.896 Y38.152 E.12927
G1 X67.488 Y40.589 E.08825
G1 X65.272 Y44.066 E.12928
G1 X62.876 Y47.422 E.12929
G1 X60.308 Y50.647 E.12926
G1 X57.619 Y53.686 E.12723
G1 X54.731 Y56.628 E.12926
G1 X52.672 Y58.548 E.08827
G1 X49.536 Y61.224 E.12926
G1 X46.264 Y63.733 E.12928
G1 X42.92 Y66.031 E.12722
G1 X39.405 Y68.187 E.12929
G1 X35.783 Y70.155 E.12925
G1 X33.253 Y71.389 E.08826
G1 X29.471 Y73.032 E.12929
G1 X25.671 Y74.453 E.1272
G1 X21.739 Y75.694 E.12928
G1 X19.021 Y76.423 E.08823
G1 X14.995 Y77.313 E.12928
G1 X10.993 Y77.983 E.12723
G1 X6.897 Y78.451 E.12926
G1 X2.781 Y78.705 E.1293
G1 X-1.342 Y78.743 E.12928
G1 X-4.154 Y78.644 E.08822
G1 X-8.265 Y78.319 E.1293
G1 X-12.288 Y77.79 E.12722
G1 X-16.342 Y77.04 E.12927
G1 X-19.084 Y76.407 E.08823
G1 X-23.057 Y75.303 E.12929
G1 X-26.966 Y73.993 E.12926
G1 X-30.802 Y72.481 E.12928
G1 X-34.494 Y70.798 E.12722
G1 X-38.152 Y68.896 E.12927
G1 X-41.705 Y66.805 E.12926
G1 X-45.145 Y64.53 E.12931
G1 X-47.422 Y62.876 E.08824
G1 X-50.647 Y60.308 E.12926
G1 X-53.734 Y57.575 E.12927
G1 X-56.628 Y54.731 E.12722
G1 X-58.548 Y52.672 E.08827
G1 X-61.224 Y49.536 E.12926
G1 X-63.694 Y46.317 E.12722
G1 X-66.031 Y42.92 E.12928
G1 X-68.187 Y39.405 E.12929
G1 X-69.551 Y36.944 E.08822
G1 X-71.389 Y33.253 E.12928
G1 X-73.032 Y29.471 E.12929
G1 X-74.474 Y25.609 E.12926
G1 X-75.694 Y21.739 E.12723
G1 X-76.196 Y19.801 E.06277
G1 X-75.832 Y19.707 F12000
G1 F3000
G1 X-76.362 Y17.66 E.0663
G1 X-77.181 Y13.639 E.12866
G1 X-77.618 Y10.879 E.08762
G1 X-78.081 Y6.802 E.12865
G1 X-78.33 Y2.706 E.12866
G1 X-78.366 Y-1.338 E.1268
G1 X-78.268 Y-4.131 E.08763
G1 X-77.945 Y-8.222 E.12867
G1 X-77.417 Y-12.232 E.12682
G1 X-76.67 Y-16.267 E.12866
G1 X-76.042 Y-18.99 E.08762
G1 X-74.944 Y-22.943 E.12864
G1 X-73.64 Y-26.834 E.12867
G1 X-72.135 Y-30.651 E.12865
G1 X-70.458 Y-34.332 E.12683
G1 X-68.564 Y-37.972 E.12866
G1 X-66.483 Y-41.508 E.12864
G1 X-64.22 Y-44.931 E.12866
G1 X-62.577 Y-47.192 E.08763
G1 X-60.021 Y-50.402 E.12866
G1 X-57.341 Y-53.431 E.12681
G1 X-54.466 Y-56.359 E.12866
G1 X-51.442 Y-59.132 E.12864
G1 X-49.301 Y-60.929 E.08764
G1 X-46.045 Y-63.426 E.12865
G1 X-42.712 Y-65.716 E.12679
G1 X-39.214 Y-67.862 E.12867
G1 X-36.77 Y-69.217 E.08762
G1 X-33.097 Y-71.046 E.12865
G1 X-29.333 Y-72.681 E.12867
G1 X-25.545 Y-74.097 E.1268
G1 X-21.632 Y-75.333 E.12866
G1 X-17.66 Y-76.362 E.12865
G1 X-13.639 Y-77.181 E.12866
G1 X-10.879 Y-77.618 E.08762
G1 X-6.802 Y-78.081 E.12865
G1 X-2.765 Y-78.328 E.12681
G1 X1.338 Y-78.366 E.12865
G1 X4.131 Y-78.268 E.08763
G1 X8.222 Y-77.945 E.12867
G1 X12.232 Y-77.417 E.12682
G1 X16.267 Y-76.67 E.12866
G1 X18.99 Y-76.042 E.08762
G1 X22.943 Y-74.944 E.12864
G1 X26.834 Y-73.64 E.12867
G1 X30.651 Y-72.135 E.12865
G1 X34.385 Y-70.432 E.12868
G1 X38.024 Y-68.536 E.12866
G1 X41.508 Y-66.483 E.12679
G1 X44.931 Y-64.22 E.12866
G1 X47.192 Y-62.577 E.08763
G1 X50.402 Y-60.021 E.12866
G1 X53.431 Y-57.341 E.12681
G1 X56.359 Y-54.466 E.12866
G1 X59.132 Y-51.442 E.12864
G1 X60.929 Y-49.301 E.08764
G1 X63.391 Y-46.093 E.12679
G1 X65.716 Y-42.712 E.12866
G1 X67.197 Y-40.342 E.08763
G1 X69.217 Y-36.77 E.12867
G1 X71.046 Y-33.097 E.12865
G1 X72.681 Y-29.333 E.12867
G1 X74.097 Y-25.545 E.1268
G1 X75.333 Y-21.632 E.12866
G1 X76.362 Y-17.66 E.12865
G1 X77.181 Y-13.639 E.12866
G1 X77.789 Y-9.581 E.12866
G1 X78.081 Y-6.802 E.08761
G1 X78.328 Y-2.765 E.12681
G1 X78.366 Y1.338 E.12865
G1 X78.268 Y4.131 E.08763
G1 X77.945 Y8.222 E.12867
G1 X77.417 Y12.232 E.12682
G1 X76.67 Y16.267 E.12866
G1 X75.714 Y20.257 E.12864
G1 X74.55 Y24.192 E.12866
G1 X73.182 Y28.06 E.12864
G1 X72.135 Y30.651 E.08762
G1 X70.458 Y34.332 E.12683
G1 X68.564 Y37.972 E.12866
G1 X67.167 Y40.392 E.08761
G1 X64.961 Y43.852 E.12866
G1 X62.612 Y47.145 E.12683
G1 X60.059 Y50.357 E.12865
G1 X57.341 Y53.431 E.12866
G1 X54.466 Y56.359 E.12866
G1 X52.422 Y58.265 E.08763
G1 X49.301 Y60.929 E.12866
G1 X46.093 Y63.391 E.12679
G1 X42.712 Y65.716 E.12866
G1 X39.214 Y67.862 E.12867
G1 X35.609 Y69.821 E.12864
G1 X31.906 Y71.589 E.12866
G1 X29.333 Y72.681 E.08764
G1 X25.545 Y74.097 E.1268
G1 X21.632 Y75.333 E.12866
G1 X18.932 Y76.056 E.08764
G1 X14.926 Y76.943 E.12865
G1 X10.937 Y77.61 E.12681
G1 X6.86 Y78.076 E.12866
G1 X2.765 Y78.328 E.12864
G1 X-1.338 Y78.366 E.12865
G1 X-4.131 Y78.268 E.08763
G1 X-8.222 Y77.945 E.12867
G1 X-12.232 Y77.417 E.12682
G1 X-16.267 Y76.67 E.12866
G1 X-18.99 Y76.042 E.08762
G1 X-22.943 Y74.944 E.12864
G1 X-26.834 Y73.64 E.12867
G1 X-30.651 Y72.135 E.12865
G1 X-34.332 Y70.458 E.12683
G1 X-37.972 Y68.564 E.12866
G1 X-41.508 Y66.483 E.12864
G1 X-44.931 Y64.22 E.12866
G1 X-47.192 Y62.577 E.08763
G1 X-50.402 Y60.021 E.12866
G1 X-53.475 Y57.301 E.12867
G1 X-56.359 Y54.466 E.1268
G1 X-58.265 Y52.422 E.08763
G1 X-60.929 Y49.301 E.12866
G1 X-63.426 Y46.045 E.12865
G1 X-65.716 Y42.712 E.12679
G1 X-67.862 Y39.214 E.12867
G1 X-69.217 Y36.77 E.08762
G1 X-71.046 Y33.097 E.12865
G1 X-72.681 Y29.333 E.12867
G1 X-74.116 Y25.489 E.12865
G1 X-75.349 Y21.575 E.12867
G1 X-75.817 Y19.765 E.05862
; printing object Aspecto-Cilindro id:0 copy 0
G1 E-2 F1800
G1 Z.8 F12000
G1 X0 Y74.036
G1 Z.2
G1 E2 F1800
;TYPE:Perimeter
;WIDTH:0.419999
G1 F3750
G1 X-2.588 Y73.991 E.08116
G1 X-3.87 Y73.935 E.04023
G1 X-6.457 Y73.754 E.08131
G1 X-7.735 Y73.631 E.04026
G1 X-10.304 Y73.315 E.08116
G1 X-12.86 Y72.91 E.08114
G1 X-14.127 Y72.676 E.0404
G1 X-15.389 Y72.419 E.04038
G1 X-17.911 Y71.837 E.08115
G1 X-20.411 Y71.167 E.08115
G1 X-21.642 Y70.802 E.04026
G1 X-24.108 Y70.001 E.0813
G1 X-25.318 Y69.572 E.04025
G1 X-27.738 Y68.643 E.08128
G1 X-28.924 Y68.152 E.04025
G1 X-31.293 Y67.097 E.08131
G1 X-32.451 Y66.545 E.04022
G1 X-34.758 Y65.37 E.08118
G1 X-37.022 Y64.115 E.08116
G1 X-38.131 Y63.461 E.04037
G1 X-39.229 Y62.788 E.04038
G1 X-41.404 Y61.376 E.08131
G1 X-42.462 Y60.649 E.04025
G1 X-44.559 Y59.125 E.08128
G1 X-45.578 Y58.344 E.04025
G1 X-47.593 Y56.712 E.0813
G1 X-48.569 Y55.878 E.04025
G1 X-50.492 Y54.146 E.08114
G1 X-52.351 Y52.351 E.08102
G1 X-54.149 Y50.489 E.08116
G1 X-55.017 Y49.543 E.04025
G1 X-56.717 Y47.586 E.08128
G1 X-57.534 Y46.595 E.04027
G1 X-59.128 Y44.556 E.08115
G1 X-60.649 Y42.462 E.08115
G1 X-61.378 Y41.4 E.04039
G1 X-62.089 Y40.326 E.04038
G1 X-63.463 Y38.128 E.08127
G1 X-64.115 Y37.022 E.04025
G1 X-65.372 Y34.754 E.0813
G1 X-65.964 Y33.615 E.04025
G1 X-67.099 Y31.289 E.08115
G1 X-68.152 Y28.924 E.08117
G1 X-68.643 Y27.738 E.04025
G1 X-69.572 Y25.318 E.08128
G1 X-70.001 Y24.108 E.04025
G1 X-70.802 Y21.642 E.0813
G1 X-71.167 Y20.411 E.04026
G1 X-71.837 Y17.911 E.08115
G1 X-72.418 Y15.393 E.08102
G1 X-72.912 Y12.852 E.08116
G1 X-73.124 Y11.582 E.04037
G1 X-73.315 Y10.308 E.04039
G1 X-73.631 Y7.735 E.08128
G1 X-73.754 Y6.457 E.04026
G1 X-73.935 Y3.87 E.08131
G1 X-73.991 Y2.588 E.04023
G1 X-74.036 Y0 E.08116
G1 X-73.991 Y-2.588 E.08116
G1 X-73.935 Y-3.87 E.04023
G1 X-73.754 Y-6.457 E.08131
G1 X-73.631 Y-7.735 E.04026
G1 X-73.315 Y-10.304 E.08116
G1 X-72.91 Y-12.86 E.08114
G1 X-72.676 Y-14.127 E.0404
G1 X-72.419 Y-15.389 E.04038
G1 X-71.837 Y-17.911 E.08115
G1 X-71.167 Y-20.411 E.08115
G1 X-70.802 Y-21.642 E.04026
G1 X-70.001 Y-24.108 E.0813
G1 X-69.571 Y-25.322 E.04038
G1 X-69.12 Y-26.528 E.04037
G1 X-68.15 Y-28.928 E.08116
G1 X-67.097 Y-31.293 E.08117
G1 X-66.545 Y-32.451 E.04022
G1 X-65.37 Y-34.758 E.08118
G1 X-64.115 Y-37.022 E.08116
G1 X-63.463 Y-38.128 E.04025
G1 X-62.089 Y-40.326 E.08127
G1 X-61.378 Y-41.4 E.04038
G1 X-60.649 Y-42.462 E.04039
G1 X-59.127 Y-44.556 E.08117
G1 X-57.534 Y-46.595 E.08113
G1 X-56.717 Y-47.586 E.04027
G1 X-55.016 Y-49.543 E.0813
G1 X-54.149 Y-50.489 E.04023
G1 X-52.351 Y-52.351 E.08116
G1 X-50.492 Y-54.146 E.08102
G1 X-48.569 Y-55.878 E.08114
G1 X-47.593 Y-56.712 E.04025
G1 X-45.578 Y-58.344 E.0813
G1 X-44.559 Y-59.125 E.04025
G1 X-42.462 Y-60.649 E.08128
G1 X-41.4 Y-61.378 E.04039
G1 X-40.326 Y-62.089 E.04038
G1 X-38.128 Y-63.463 E.08127
G1 X-37.022 Y-64.115 E.04025
G1 X-34.754 Y-65.372 E.0813
G1 X-33.615 Y-65.964 E.04025
G1 X-31.289 Y-67.099 E.08115
G1 X-28.924 Y-68.152 E.08117
G1 X-27.734 Y-68.645 E.04039
G1 X-26.536 Y-69.117 E.04037
G1 X-24.104 Y-70.002 E.08115
G1 X-21.642 Y-70.802 E.08117
G1 X-20.411 Y-71.167 E.04026
G1 X-17.911 Y-71.837 E.08115
G1 X-15.389 Y-72.419 E.08115
G1 X-14.127 Y-72.676 E.04038
G1 X-12.86 Y-72.91 E.0404
G1 X-10.304 Y-73.315 E.08114
G1 X-7.735 Y-73.631 E.08116
G1 X-6.457 Y-73.754 E.04026
G1 X-3.87 Y-73.935 E.08131
G1 X-2.584 Y-73.991 E.04036
G1 X-1.295 Y-74.024 E.04043
G1 X.646 Y-74.03 E.06086
G1 X2.587 Y-73.991 E.06087
G1 X3.87 Y-73.935 E.04027
G1 X6.457 Y-73.754 E.08131
G1 X7.739 Y-73.63 E.04038
G1 X9.019 Y-73.484 E.04039
G1 X11.586 Y-73.124 E.08127
G1 X12.852 Y-72.912 E.04025
G1 X15.393 Y-72.418 E.08116
G1 X17.915 Y-71.836 E.08115
G1 X19.158 Y-71.514 E.04026
G1 X21.646 Y-70.801 E.08115
G1 X24.108 Y-70.001 E.08117
G1 X25.322 Y-69.571 E.04038
G1 X26.528 Y-69.12 E.04037
G1 X28.928 Y-68.15 E.08116
G1 X31.293 Y-67.097 E.08117
G1 X32.455 Y-66.543 E.04036
G1 X33.608 Y-65.968 E.0404
G1 X35.897 Y-64.751 E.08128
G1 X37.014 Y-64.119 E.04024
G1 X39.233 Y-62.786 E.08116
G1 X41.4 Y-61.378 E.08103
G1 X43.521 Y-59.894 E.08116
G1 X44.556 Y-59.128 E.04037
G1 X45.578 Y-58.344 E.04039
G1 X47.589 Y-56.715 E.08114
G1 X49.54 Y-55.019 E.08105
G1 X51.433 Y-53.254 E.08115
G1 X52.348 Y-52.354 E.04024
G1 X54.146 Y-50.492 E.08116
G1 X55.878 Y-48.569 E.08114
G1 X56.715 Y-47.589 E.04041
G1 X57.534 Y-46.595 E.04038
G1 X59.13 Y-44.553 E.08126
G1 X59.894 Y-43.521 E.04026
G1 X61.381 Y-41.397 E.08129
G1 X62.089 Y-40.326 E.04025
G1 X63.463 Y-38.128 E.08127
G1 X64.115 Y-37.021 E.04028
G1 X65.372 Y-34.754 E.08128
G1 X65.964 Y-33.615 E.04025
G1 X67.099 Y-31.289 E.08115
G1 X68.15 Y-28.928 E.08103
G1 X69.12 Y-26.528 E.08116
G1 X69.569 Y-25.326 E.04023
G1 X70.413 Y-22.874 E.08131
G1 X70.801 Y-21.646 E.04038
G1 X71.167 Y-20.411 E.04039
G1 X71.837 Y-17.911 E.08115
G1 X72.418 Y-15.393 E.08102
G1 X72.912 Y-12.852 E.08116
G1 X73.124 Y-11.586 E.04025
G1 X73.484 Y-9.019 E.08127
G1 X73.63 Y-7.739 E.04039
G1 X73.754 Y-6.457 E.04038
G1 X73.935 Y-3.87 E.08131
G1 X73.991 Y-2.588 E.04023
G1 X74.036 Y.004 E.08128
G1 X74.025 Y1.288 E.04026
G1 X73.934 Y3.875 E.08116
G1 X73.754 Y6.453 E.08103
G1 X73.483 Y9.027 E.08115
G1 X73.316 Y10.3 E.04026
G1 X72.91 Y12.86 E.08127
G1 X72.419 Y15.389 E.08078
G1 X71.837 Y17.911 E.08115
G1 X71.167 Y20.411 E.08115
G1 X70.802 Y21.642 E.04026
G1 X70.001 Y24.108 E.0813
G1 X69.571 Y25.322 E.04038
G1 X69.12 Y26.528 E.04037
G1 X68.15 Y28.928 E.08116
G1 X67.097 Y31.293 E.08117
G1 X66.545 Y32.451 E.04022
G1 X65.368 Y34.761 E.08129
G1 X64.755 Y35.89 E.04028
G1 X63.461 Y38.131 E.08114
G1 X62.089 Y40.326 E.08116
G1 X61.381 Y41.397 E.04025
G1 X59.894 Y43.521 E.08129
G1 X59.13 Y44.553 E.04026
G1 X57.534 Y46.595 E.08126
G1 X56.717 Y47.586 E.04027
G1 X55.019 Y49.54 E.08117
G1 X53.254 Y51.433 E.08115
G1 X52.351 Y52.351 E.04037
G1 X51.433 Y53.254 E.04037
G1 X49.54 Y55.019 E.08115
G1 X47.586 Y56.717 E.08117
G1 X46.595 Y57.534 E.04027
G1 X44.553 Y59.13 E.08126
G1 X43.521 Y59.894 E.04026
G1 X41.4 Y61.378 E.08116
G1 X39.233 Y62.786 E.08103
G1 X37.014 Y64.119 E.08116
G1 X35.897 Y64.751 E.04024
G1 X33.608 Y65.968 E.08128
G1 X32.455 Y66.543 E.0404
G1 X31.293 Y67.097 E.04036
G1 X28.924 Y68.152 E.08131
G1 X27.738 Y68.643 E.04025
G1 X25.322 Y69.571 E.08115
G1 X22.874 Y70.413 E.08117
G1 X21.646 Y70.801 E.04038
G1 X20.411 Y71.167 E.04039
G1 X17.911 Y71.837 E.08115
G1 X15.389 Y72.419 E.08115
G1 X12.86 Y72.91 E.08078
G1 X10.3 Y73.316 E.08127
G1 X9.027 Y73.483 E.04026
G1 X6.453 Y73.754 E.08115
G1 X3.87 Y73.935 E.08119
G1 X2.588 Y73.991 E.04023
G1 X.06 Y74.035 E.07928
G1 X0 Y74.413 F12000
G1 F3750
G1 X-2.6 Y74.367 E.08153
G1 X-3.892 Y74.311 E.04055
G1 X-6.488 Y74.129 E.0816
G1 X-7.776 Y74.006 E.04057
G1 X-10.356 Y73.689 E.0815
G1 X-12.924 Y73.282 E.08152
G1 X-14.199 Y73.046 E.04066
G1 X-15.469 Y72.787 E.04064
G1 X-18.002 Y72.202 E.08151
G1 X-20.513 Y71.53 E.0815
G1 X-21.754 Y71.162 E.04059
G1 X-24.229 Y70.358 E.08159
G1 X-25.448 Y69.926 E.04055
G1 X-27.878 Y68.993 E.08161
G1 X-29.073 Y68.498 E.04056
G1 X-31.451 Y67.44 E.08161
G1 X-32.618 Y66.883 E.04054
G1 X-34.935 Y65.703 E.08153
G1 X-37.209 Y64.442 E.08153
G1 X-38.325 Y63.784 E.04062
G1 X-39.431 Y63.107 E.04066
G1 X-41.613 Y61.69 E.08158
G1 X-42.679 Y60.957 E.04056
G1 X-44.785 Y59.427 E.08162
G1 X-45.811 Y58.64 E.04054
G1 X-47.834 Y57.002 E.08161
G1 X-48.817 Y56.162 E.04054
G1 X-50.749 Y54.422 E.08152
G1 X-52.618 Y52.618 E.08145
G1 X-54.424 Y50.748 E.08151
G1 X-55.298 Y49.794 E.04057
G1 X-57.005 Y47.83 E.08159
G1 X-57.828 Y46.831 E.04058
G1 X-59.429 Y44.783 E.08151
G1 X-60.957 Y42.679 E.08153
G1 X-61.691 Y41.611 E.04063
G1 X-62.407 Y40.53 E.04065
G1 X-63.786 Y38.323 E.0816
G1 X-64.442 Y37.209 E.04053
G1 X-65.704 Y34.932 E.08163
G1 X-66.301 Y33.785 E.04054
G1 X-67.441 Y31.448 E.08153
G1 X-68.498 Y29.073 E.08151
G1 X-68.993 Y27.878 E.04056
G1 X-69.926 Y25.448 E.08161
G1 X-70.358 Y24.229 E.04055
G1 X-71.162 Y21.754 E.08159
G1 X-71.53 Y20.513 E.04059
G1 X-72.202 Y18.002 E.0815
G1 X-72.787 Y15.471 E.08145
G1 X-73.283 Y12.919 E.08151
G1 X-73.497 Y11.641 E.04063
G1 X-73.688 Y10.359 E.04064
