; generated by PrusaSlicer 2.6.0+linux-x64-GTK3 on 2023-08-03 at 15:14:20 UTC


;
;

;
;
; 

; external perimeters extrusion width = 0.45mm
; perimeters extrusion width = 0.45mm
; infill extrusion width = 0.45mm
; solid infill extrusion width = 0.45mm
; top infill extrusion width = 0.40mm
; first layer extrusion width = 0.42mm

;TYPE:Custom
; printing object STARTGCODE
M104 S0;
M140 S0;
START_PRINT BED_TEMP_FL=60 EXTRUDER_TEMP=210;
G21 ; set units to millimeters
G90 ; use absolute coordinates
M83 ; use relative distances for extrusion
; Filament gcode
;SET_PRESSURE_ADVANCE ADVANCE=0.36
M107
;LAYER_CHANGE
;Z:0.2
;HEIGHT:0.2
;BEFORE_LAYER_CHANGE
M117 layer 0 at 0.2mm
G92 E0 ;
G1 E-3 F1800
G1 Z.6 F9000
;AFTER_LAYER_CHANGE
M117 layer 0 at 0.2mm
G1 X-28.131 Y0
G1 Z.2
G1 E3 F1800
;TYPE:Skirt/Brim
;WIDTH:0.42
G1 F3000
G1 X-28.131 Y-24 E.7525
G1 X-27.736 Y-25.763 E.05665
G1 X-26.626 Y-27.189 E.05666
G1 X-25.014 Y-28.005 E.05665
G1 X-24 Y-28.131 E.03204
G1 X24 Y-28.131 E1.50501
G1 X25.763 Y-27.736 E.05665
G1 X27.189 Y-26.626 E.05666
G1 X28.005 Y-25.014 E.05665
G1 X28.131 Y-24 E.03204
G1 X28.131 Y24 E1.50501
G1 X27.736 Y25.763 E.05665
G1 X26.626 Y27.189 E.05666
G1 X25.014 Y28.005 E.05665
G1 X24 Y28.131 E.03204
G1 X-24 Y28.131 E1.50501
G1 X-25.763 Y27.736 E.05665
G1 X-27.189 Y26.626 E.05666
G1 X-28.005 Y25.014 E.05665
G1 X-28.131 Y24 E.03204
G1 X-28.131 Y.06 E.75062
G1 X-27.754 Y.06 F9000
G1 F3000
G1 X-27.754 Y-24 E.75438
G1 X-27.359 Y-25.676 E.05399
G1 X-26.258 Y-26.999 E.05397
G1 X-24 Y-27.754 E.07465
G1 X24 Y-27.754 E1.50501
G1 X25.676 Y-27.359 E.05399
G1 X26.999 Y-26.258 E.05397
G1 X27.754 Y-24 E.07465
G1 X27.754 Y24 E1.50501
G1 X27.359 Y25.676 E.05399
G1 X26.258 Y26.999 E.05397
G1 X24 Y27.754 E.07465
G1 X-24 Y27.754 E1.50501
G1 X-25.676 Y27.359 E.05399
G1 X-26.999 Y26.258 E.05397
G1 X-27.754 Y24 E.07465
G1 X-27.754 Y.12 E.74874
G1 X-27.377 Y.12 F9000
G1 F3000
G1 X-27.377 Y-24 E.75627
G1 X-26.983 Y-25.583 E.05115
G1 X-25.893 Y-26.797 E.05116
G1 X-24 Y-27.377 E.06208
G1 X24 Y-27.377 E1.50501
G1 X25.583 Y-26.983 E.05115
G1 X26.797 Y-25.893 E.05116
G1 X27.377 Y-24 E.06208
G1 X27.377 Y24 E1.50501
G1 X26.983 Y25.583 E.05115
G1 X25.893 Y26.797 E.05116
G1 X24 Y27.377 E.06208
G1 X-24 Y27.377 E1.50501
G1 X-25.583 Y26.983 E.05115
G1 X-26.797 Y25.893 E.05116
G1 X-27.377 Y24 E.06208
G1 X-27.377 Y.18 E.74686
; printing object Forma-Caixa id:0 copy 0
G1 E-1.5 F1800
;WIPE_START
G1 F7200
G1 X-27.377 Y-6.136 E-1.5
;WIPE_END
G1 Z.8 F9000
G1 X23.036 Y23.036
G1 Z.2
G1 E3 F1800
;TYPE:Perimeter
;WIDTH:0.419999
G1 F3000
G1 X-23.036 Y23.036 E1.44455
G1 X-23.036 Y-23.036 E1.44455
G1 X23.036 Y-23.036 E1.44455
G1 X23.036 Y22.976 E1.44267
G1 X23.413 Y23.413 F9000
G1 F3000
G1 X-23.413 Y23.413 E1.46819
G1 X-23.413 Y-23.413 E1.46819
G1 X23.413 Y-23.413 E1.46819
G1 X23.413 Y23.353 E1.46631
G1 X23.79 Y23.79 F9000
;TYPE:External perimeter
G1 F2250
G1 X-23.79 Y23.79 E1.49183
G1 X-23.79 Y-23.79 E1.49183
G1 X23.79 Y-23.79 E1.49183
G1 X23.79 Y23.73 E1.48995
G1 X23.404 Y23.686 F9000
G1 E-1.5 F1800
;WIPE_START
G1 F7200
G1 X17.474 Y23.738 E-1.5
;WIPE_END
G1 Z.8 F9000
G1 X22.934 Y-22.171
G1 Z.2
G1 E3 F1800
;TYPE:Solid infill
;WIDTH:0.420365
G1 F4500
G1 X22.341 Y-22.764 E.02632
G1 X21.807 Y-22.764 E.01676
G1 X22.764 Y-21.807 E.04248
G1 X22.764 Y-21.273 E.01676
G1 X21.273 Y-22.764 E.06618
G1 X20.739 Y-22.764 E.01676
G1 X22.764 Y-20.739 E.08988
G1 X22.764 Y-20.206 E.01673
G1 X20.206 Y-22.764 E.11354
G1 X19.672 Y-22.764 E.01676
G1 X22.764 Y-19.672 E.13724
G1 X22.764 Y-19.138 E.01676
G1 X19.138 Y-22.764 E.16094
G1 X18.604 Y-22.764 E.01676
G1 X22.764 Y-18.604 E.18464
G1 X22.764 Y-18.07 E.01676
G1 X18.07 Y-22.764 E.20834
G1 X17.537 Y-22.764 E.01673
G1 X22.764 Y-17.537 E.232
G1 X22.764 Y-17.003 E.01676
G1 X17.003 Y-22.764 E.2557
G1 X16.469 Y-22.764 E.01676
G1 X22.764 Y-16.469 E.2794
G1 X22.764 Y-15.935 E.01676
G1 X15.935 Y-22.764 E.3031
G1 X15.401 Y-22.764 E.01676
G1 X22.764 Y-15.401 E.3268
G1 X22.764 Y-14.868 E.01673
G1 X14.868 Y-22.764 E.35046
G1 X14.334 Y-22.764 E.01676
G1 X22.764 Y-14.334 E.37416
G1 X22.764 Y-13.8 E.01676
G1 X13.8 Y-22.764 E.39786
G1 X13.266 Y-22.764 E.01676
G1 X22.764 Y-13.266 E.42157
G1 X22.764 Y-12.732 E.01676
G1 X12.732 Y-22.764 E.44527
G1 X12.199 Y-22.764 E.01673
G1 X22.764 Y-12.199 E.46892
G1 X22.764 Y-11.665 E.01676
G1 X11.665 Y-22.764 E.49263
G1 X11.131 Y-22.764 E.01676
G1 X22.764 Y-11.131 E.51633
G1 X22.764 Y-10.597 E.01676
G1 X10.597 Y-22.764 E.54003
G1 X10.064 Y-22.764 E.01673
G1 X22.764 Y-10.064 E.56368
G1 X22.764 Y-9.53 E.01676
G1 X9.53 Y-22.764 E.58739
G1 X8.996 Y-22.764 E.01676
G1 X22.764 Y-8.996 E.61109
G1 X22.764 Y-8.462 E.01676
G1 X8.462 Y-22.764 E.63479
G1 X7.928 Y-22.764 E.01676
G1 X22.764 Y-7.928 E.65849
G1 X22.764 Y-7.395 E.01673
G1 X7.395 Y-22.764 E.68215
G1 X6.861 Y-22.764 E.01676
G1 X22.764 Y-6.861 E.70585
G1 X22.764 Y-6.327 E.01676
G1 X6.327 Y-22.764 E.72955
G1 X5.793 Y-22.764 E.01676
G1 X22.764 Y-5.793 E.75325
G1 X22.764 Y-5.259 E.01676
G1 X5.259 Y-22.764 E.77695
G1 X4.726 Y-22.764 E.01673
G1 X22.764 Y-4.726 E.80061
G1 X22.764 Y-4.192 E.01676
G1 X4.192 Y-22.764 E.82431
G1 X3.658 Y-22.764 E.01676
G1 X22.764 Y-3.658 E.84801
G1 X22.764 Y-3.124 E.01676
G1 X3.124 Y-22.764 E.87171
G1 X2.591 Y-22.764 E.01673
G1 X22.764 Y-2.591 E.89537
G1 X22.764 Y-2.057 E.01676
G1 X2.057 Y-22.764 E.91907
G1 X1.523 Y-22.764 E.01676
G1 X22.764 Y-1.523 E.94277
G1 X22.764 Y-.989 E.01676
G1 X.989 Y-22.764 E.96648
G1 X.455 Y-22.764 E.01676
G1 X22.764 Y-.455 E.99018
G1 X22.764 Y.078 E.01673
G1 X-.078 Y-22.764 E1.01383
G1 X-.612 Y-22.764 E.01676
G1 X22.764 Y.612 E1.03754
G1 X22.764 Y1.146 E.01676
G1 X-1.146 Y-22.764 E1.06124
G1 X-1.68 Y-22.764 E.01676
G1 X22.764 Y1.68 E1.08494
G1 X22.764 Y2.214 E.01676
G1 X-2.214 Y-22.764 E1.10864
G1 X-2.747 Y-22.764 E.01673
G1 X22.764 Y2.747 E1.1323
G1 X22.764 Y3.281 E.01676
G1 X-3.281 Y-22.764 E1.156
G1 X-3.815 Y-22.764 E.01676
G1 X22.764 Y3.815 E1.1797
G1 X22.764 Y4.349 E.01676
G1 X-4.349 Y-22.764 E1.2034
G1 X-4.883 Y-22.764 E.01676
G1 X22.764 Y4.883 E1.2271
G1 X22.764 Y5.416 E.01673
G1 X-5.416 Y-22.764 E1.25076
G1 X-5.95 Y-22.764 E.01676
G1 X22.764 Y5.95 E1.27446
G1 X22.764 Y6.484 E.01676
G1 X-6.484 Y-22.764 E1.29816
G1 X-7.018 Y-22.764 E.01676
G1 X22.764 Y7.018 E1.32186
G1 X22.764 Y7.551 E.01673
G1 X-7.551 Y-22.764 E1.34552
G1 X-8.085 Y-22.764 E.01676
G1 X22.764 Y8.085 E1.36922
G1 X22.764 Y8.619 E.01676
G1 X-8.619 Y-22.764 E1.39292
G1 X-9.153 Y-22.764 E.01676
G1 X22.764 Y9.153 E1.41662
G1 X22.764 Y9.687 E.01676
G1 X-9.687 Y-22.764 E1.44033
G1 X-10.22 Y-22.764 E.01673
G1 X22.764 Y10.22 E1.46398
G1 X22.764 Y10.754 E.01676
G1 X-10.754 Y-22.764 E1.48768
G1 X-11.288 Y-22.764 E.01676
G1 X22.764 Y11.288 E1.51139
G1 X22.764 Y11.822 E.01676
G1 X-11.822 Y-22.764 E1.53509
G1 X-12.356 Y-22.764 E.01676
G1 X22.764 Y12.356 E1.55879
G1 X22.764 Y12.889 E.01673
G1 X-12.889 Y-22.764 E1.58245
G1 X-13.423 Y-22.764 E.01676
G1 X22.764 Y13.423 E1.60615
G1 X22.764 Y13.957 E.01676
G1 X-13.957 Y-22.764 E1.62985
G1 X-14.491 Y-22.764 E.01676
G1 X22.764 Y14.491 E1.65355
G1 X22.764 Y15.024 E.01673
G1 X-15.024 Y-22.764 E1.67721
G1 X-15.558 Y-22.764 E.01676
G1 X22.764 Y15.558 E1.70091
G1 X22.764 Y16.092 E.01676
G1 X-16.092 Y-22.764 E1.72461
G1 X-16.626 Y-22.764 E.01676
G1 X22.764 Y16.626 E1.74831
G1 X22.764 Y17.16 E.01676
G1 X-17.16 Y-22.764 E1.77201
G1 X-17.693 Y-22.764 E.01673
G1 X22.764 Y17.693 E1.79567
G1 X22.764 Y18.227 E.01676
G1 X-18.227 Y-22.764 E1.81937
G1 X-18.761 Y-22.764 E.01676
G1 X22.764 Y18.761 E1.84307
G1 X22.764 Y19.295 E.01676
G1 X-19.295 Y-22.764 E1.86677
G1 X-19.829 Y-22.764 E.01676
G1 X22.764 Y19.829 E1.89048
G1 X22.764 Y20.362 E.01673
G1 X-20.362 Y-22.764 E1.91413
G1 X-20.896 Y-22.764 E.01676
G1 X22.764 Y20.896 E1.93783
G1 X22.764 Y21.43 E.01676
G1 X-21.43 Y-22.764 E1.96153
G1 X-21.964 Y-22.764 E.01676
G1 X22.764 Y21.964 E1.98524
G1 X22.764 Y22.498 E.01676
G1 X-22.498 Y-22.764 E2.00894
G1 X-22.764 Y-22.764 E.00835
G1 X-22.764 Y-22.497 E.00838
G1 X22.497 Y22.764 E2.00889
G1 X21.964 Y22.764 E.01673
G1 X-22.764 Y-21.964 E1.98524
G1 X-22.764 Y-21.43 E.01676
G1 X21.43 Y22.764 E1.96153
G1 X20.896 Y22.764 E.01676
G1 X-22.764 Y-20.896 E1.93783
G1 X-22.764 Y-20.362 E.01676
G1 X20.362 Y22.764 E1.91413
G1 X19.828 Y22.764 E.01676
G1 X-22.764 Y-19.828 E1.89043
G1 X-22.764 Y-19.295 E.01673
G1 X19.295 Y22.764 E1.86677
G1 X18.761 Y22.764 E.01676
G1 X-22.764 Y-18.761 E1.84307
G1 X-22.764 Y-18.227 E.01676
G1 X18.227 Y22.764 E1.81937
G1 X17.693 Y22.764 E.01676
G1 X-22.764 Y-17.693 E1.79567
G1 X-22.764 Y-17.16 E.01673
G1 X17.16 Y22.764 E1.77201
G1 X16.626 Y22.764 E.01676
G1 X-22.764 Y-16.626 E1.74831
G1 X-22.764 Y-16.092 E.01676
G1 X16.092 Y22.764 E1.72461
G1 X15.558 Y22.764 E.01676
G1 X-22.764 Y-15.558 E1.70091
G1 X-22.764 Y-15.024 E.01676
G1 X15.024 Y22.764 E1.67721
G1 X14.491 Y22.764 E.01673
G1 X-22.764 Y-14.491 E1.65355
G1 X-22.764 Y-13.957 E.01676
G1 X13.957 Y22.764 E1.62985
G1 X13.423 Y22.764 E.01676
G1 X-22.764 Y-13.423 E1.60615
G1 X-22.764 Y-12.889 E.01676
G1 X12.889 Y22.764 E1.58245
G1 X12.355 Y22.764 E.01676
G1 X-22.764 Y-12.355 E1.55874
G1 X-22.764 Y-11.822 E.01673
G1 X11.822 Y22.764 E1.53509
G1 X11.288 Y22.764 E.01676
G1 X-22.764 Y-11.288 E1.51139
G1 X-22.764 Y-10.754 E.01676
G1 X10.754 Y22.764 E1.48768
G1 X10.22 Y22.764 E.01676
G1 X-22.764 Y-10.22 E1.46398
G1 X-22.764 Y-9.686 E.01676
G1 X9.686 Y22.764 E1.44028
G1 X9.153 Y22.764 E.01673
G1 X-22.764 Y-9.153 E1.41662
G1 X-22.764 Y-8.619 E.01676
G1 X8.619 Y22.764 E1.39292
G1 X8.085 Y22.764 E.01676
G1 X-22.764 Y-8.085 E1.36922
G1 X-22.764 Y-7.551 E.01676
G1 X7.551 Y22.764 E1.34552
G1 X7.018 Y22.764 E.01673
G1 X-22.764 Y-7.018 E1.32186
G1 X-22.764 Y-6.484 E.01676
G1 X6.484 Y22.764 E1.29816
G1 X5.95 Y22.764 E.01676
G1 X-22.764 Y-5.95 E1.27446
G1 X-22.764 Y-5.416 E.01676
G1 X5.416 Y22.764 E1.25076
G1 X4.882 Y22.764 E.01676
G1 X-22.764 Y-4.882 E1.22706
G1 X-22.764 Y-4.349 E.01673
G1 X4.349 Y22.764 E1.2034
G1 X3.815 Y22.764 E.01676
G1 X-22.764 Y-3.815 E1.1797
G1 X-22.764 Y-3.281 E.01676
G1 X3.281 Y22.764 E1.156
G1 X2.747 Y22.764 E.01676
G1 X-22.764 Y-2.747 E1.1323
G1 X-22.764 Y-2.213 E.01676
G1 X2.213 Y22.764 E1.1086
G1 X1.68 Y22.764 E.01673
G1 X-22.764 Y-1.68 E1.08494
G1 X-22.764 Y-1.146 E.01676
G1 X1.146 Y22.764 E1.06124
G1 X.612 Y22.764 E.01676
G1 X-22.764 Y-.612 E1.03754
G1 X-22.764 Y-.078 E.01676
G1 X.078 Y22.764 E1.01383
G1 X-.455 Y22.764 E.01673
G1 X-22.764 Y.455 E.99018
G1 X-22.764 Y.989 E.01676
G1 X-.989 Y22.764 E.96648
G1 X-1.523 Y22.764 E.01676
G1 X-22.764 Y1.523 E.94277
G1 X-22.764 Y2.057 E.01676
G1 X-2.057 Y22.764 E.91907
G1 X-2.591 Y22.764 E.01676
G1 X-22.764 Y2.591 E.89537
G1 X-22.764 Y3.124 E.01673
G1 X-3.124 Y22.764 E.87171
G1 X-3.658 Y22.764 E.01676
G1 X-22.764 Y3.658 E.84801
G1 X-22.764 Y4.192 E.01676
G1 X-4.192 Y22.764 E.82431
G1 X-4.726 Y22.764 E.01676
G1 X-22.764 Y4.726 E.80061
G1 X-22.764 Y5.26 E.01676
G1 X-5.26 Y22.764 E.77691
G1 X-5.793 Y22.764 E.01673
G1 X-22.764 Y5.793 E.75325
G1 X-22.764 Y6.327 E.01676
G1 X-6.327 Y22.764 E.72955
G1 X-6.861 Y22.764 E.01676
G1 X-22.764 Y6.861 E.70585
G1 X-22.764 Y7.395 E.01676
G1 X-7.395 Y22.764 E.68215
G1 X-7.929 Y22.764 E.01676
G1 X-22.764 Y7.929 E.65845
G1 X-22.764 Y8.462 E.01673
G1 X-8.462 Y22.764 E.63479
G1 X-8.996 Y22.764 E.01676
G1 X-22.764 Y8.996 E.61109
G1 X-22.764 Y9.53 E.01676
G1 X-9.53 Y22.764 E.58739
G1 X-10.064 Y22.764 E.01676
G1 X-22.764 Y10.064 E.56368
G1 X-22.764 Y10.597 E.01673
G1 X-10.597 Y22.764 E.54003
G1 X-11.131 Y22.764 E.01676
G1 X-22.764 Y11.131 E.51633
G1 X-22.764 Y11.665 E.01676
G1 X-11.665 Y22.764 E.49263
G1 X-12.199 Y22.764 E.01676
G1 X-22.764 Y12.199 E.46892
G1 X-22.764 Y12.733 E.01676
G1 X-12.733 Y22.764 E.44522
G1 X-13.266 Y22.764 E.01673
G1 X-22.764 Y13.266 E.42157
G1 X-22.764 Y13.8 E.01676
G1 X-13.8 Y22.764 E.39786
G1 X-14.334 Y22.764 E.01676
G1 X-22.764 Y14.334 E.37416
G1 X-22.764 Y14.868 E.01676
G1 X-14.868 Y22.764 E.35046
G1 X-15.402 Y22.764 E.01676
G1 X-22.764 Y15.402 E.32676
G1 X-22.764 Y15.935 E.01673
G1 X-15.935 Y22.764 E.3031
G1 X-16.469 Y22.764 E.01676
G1 X-22.764 Y16.469 E.2794
G1 X-22.764 Y17.003 E.01676
G1 X-17.003 Y22.764 E.2557
G1 X-17.537 Y22.764 E.01676
G1 X-22.764 Y17.537 E.232
G1 X-22.764 Y18.07 E.01673
G1 X-18.07 Y22.764 E.20834
G1 X-18.604 Y22.764 E.01676
G1 X-22.764 Y18.604 E.18464
G1 X-22.764 Y19.138 E.01676
G1 X-19.138 Y22.764 E.16094
G1 X-19.672 Y22.764 E.01676
G1 X-22.764 Y19.672 E.13724
G1 X-22.764 Y20.206 E.01676
G1 X-20.206 Y22.764 E.11354
G1 X-20.739 Y22.764 E.01673
G1 X-22.764 Y20.739 E.08988
G1 X-22.764 Y21.273 E.01676
G1 X-21.273 Y22.764 E.06618
G1 X-21.807 Y22.764 E.01676
G1 X-22.764 Y21.807 E.04248
G1 X-22.764 Y22.341 E.01676
G1 X-22.171 Y22.934 E.02632
; stop printing object Forma-Caixa id:0 copy 0
M106 S114.75
;LAYER_CHANGE
;Z:0.4
;HEIGHT:0.2
;BEFORE_LAYER_CHANGE
M117 layer 1 at 0.4mm
G92 E0 ;
G1 E-1.5 F1800
;WIPE_START
G1 F7200
G1 X-22.764 Y22.341 E-.19917
G1 X-22.764 Y21.807 E-.12682
G1 X-21.807 Y22.764 E-.32143
G1 X-21.273 Y22.764 E-.12683
G1 X-22.764 Y21.273 E-.50079
G1 X-22.764 Y20.739 E-.12682
G1 X-22.472 Y21.031 E-.09814
;WIPE_END
G1 Z.8 F9000
;AFTER_LAYER_CHANGE
M117 layer 1 at 0.4mm
M140 S60 ; set bed temperature
; printing object Forma-Caixa id:0 copy 0
G1 X22.961 Y22.961
G1 Z.4
G1 E3 F1800
;TYPE:Perimeter
;WIDTH:0.449999
G1 F6000
G1 X-22.961 Y22.961 E1.5544
G1 X-22.961 Y-22.961 E1.5544
G1 X22.961 Y-22.961 E1.5544
G1 X22.961 Y22.901 E1.55237
G1 X23.368 Y23.368 F9000
G1 F6000
G1 X-23.368 Y23.368 E1.58196
G1 X-23.368 Y-23.368 E1.58196
G1 X23.368 Y-23.368 E1.58196
G1 X23.368 Y23.308 E1.57992
G1 X23.775 Y23.775 F9000
;TYPE:External perimeter
G1 F4500
G1 X-23.775 Y23.775 E1.60951
G1 X-23.775 Y-23.775 E1.60951
G1 X23.775 Y-23.775 E1.60951
G1 X23.775 Y23.715 E1.60748
G1 X23.389 Y23.671 F9000
G1 E-1.5 F1800
;WIPE_START
G1 F7200
G1 X17.459 Y23.723 E-1.5
;WIPE_END
G1 Z1 F9000
G1 X-22.557 Y-22.635
G1 Z.4
G1 E3 F1800
;TYPE:Solid infill
;WIDTH:0.548766
G1 F9000
G1 X-22.602 Y-22.679 E.00265
G1 X-22.663 Y-22.663 E.00265
G1 X-22.679 Y-22.602 E.00265
G1 X-22.635 Y-22.557 E.00265
G1 X-22.574 Y-22.574 E.00266
;WIDTH:0.449999
G1 X-22.668 Y-21.923 E.02226
G1 X-21.923 Y-22.668 E.03566
G1 X-21.83 Y-22.74 E.00398
;WIDTH:0.41646
G1 X-21.737 Y-22.811 E.00363
;WIDTH:0.38292
G1 X-21.778 Y-22.8 E.0012
G1 X-21.797 Y-22.872 E.00211
G1 X-21.726 Y-22.852 E.00209
;WIDTH:0.449999
G1 X-21.348 Y-22.668 E.01423
G1 X-22.668 Y-21.348 E.06319
G1 X-22.668 Y-20.772 E.0195
G1 X-20.772 Y-22.668 E.09076
G1 X-20.196 Y-22.668 E.0195
G1 X-22.668 Y-20.196 E.11833
G1 X-22.668 Y-19.621 E.01946
G1 X-19.621 Y-22.668 E.14586
G1 X-19.045 Y-22.668 E.0195
G1 X-22.668 Y-19.045 E.17343
G1 X-22.668 Y-18.469 E.0195
G1 X-18.469 Y-22.668 E.201
G1 X-17.894 Y-22.668 E.01946
G1 X-22.668 Y-17.894 E.22853
G1 X-22.668 Y-17.318 E.0195
G1 X-17.318 Y-22.668 E.2561
G1 X-16.742 Y-22.668 E.0195
G1 X-22.668 Y-16.742 E.28367
G1 X-22.668 Y-16.166 E.0195
G1 X-16.166 Y-22.668 E.31125
G1 X-15.591 Y-22.668 E.01946
G1 X-22.668 Y-15.591 E.33877
G1 X-22.668 Y-15.015 E.0195
G1 X-15.015 Y-22.668 E.36634
G1 X-14.439 Y-22.668 E.0195
G1 X-22.668 Y-14.439 E.39392
G1 X-22.668 Y-13.864 E.01946
G1 X-13.864 Y-22.668 E.42144
G1 X-13.288 Y-22.668 E.0195
G1 X-22.668 Y-13.288 E.44901
G1 X-22.668 Y-12.712 E.0195
G1 X-12.712 Y-22.668 E.47659
G1 X-12.137 Y-22.668 E.01946
G1 X-22.668 Y-12.137 E.50411
G1 X-22.668 Y-11.561 E.0195
G1 X-11.561 Y-22.668 E.53169
G1 X-10.985 Y-22.668 E.0195
G1 X-22.668 Y-10.985 E.55926
G1 X-22.668 Y-10.41 E.01946
G1 X-10.409 Y-22.668 E.58681
G1 X-9.834 Y-22.668 E.01946
G1 X-22.668 Y-9.834 E.61436
G1 X-22.668 Y-9.258 E.0195
G1 X-9.258 Y-22.668 E.64193
G1 X-8.682 Y-22.668 E.0195
G1 X-22.668 Y-8.682 E.6695
G1 X-22.668 Y-8.107 E.01946
G1 X-8.107 Y-22.668 E.69703
G1 X-7.531 Y-22.668 E.0195
G1 X-22.668 Y-7.531 E.7246
G1 X-22.668 Y-6.955 E.0195
G1 X-6.955 Y-22.668 E.75217
G1 X-6.38 Y-22.668 E.01946
G1 X-22.668 Y-6.38 E.7797
G1 X-22.668 Y-5.804 E.0195
G1 X-5.804 Y-22.668 E.80727
G1 X-5.228 Y-22.668 E.0195
G1 X-22.668 Y-5.228 E.83484
G1 X-22.668 Y-4.653 E.01946
G1 X-4.653 Y-22.668 E.86237
G1 X-4.077 Y-22.668 E.0195
G1 X-22.668 Y-4.077 E.88994
G1 X-22.668 Y-3.501 E.0195
G1 X-3.501 Y-22.668 E.91751
