; generated by PrusaSlicer 2.6.0+win64 on 2023-08-13 at 22:42:23 UTC


;
;

;
;
; 

; external perimeters extrusion width = 0.45mm
; perimeters extrusion width = 0.45mm
; infill extrusion width = 0.45mm
; solid infill extrusion width = 0.45mm
; top infill extrusion width = 0.40mm
; first layer extrusion width = 0.42mm

;TYPE:Custom
; printing object STARTGCODE
M104 S0;
M140 S0;
START_PRINT BED_TEMP_FL=60 EXTRUDER_TEMP=210;
G21 ; set units to millimeters
G90 ; use absolute coordinates
M83 ; use relative distances for extrusion
; Filament gcode
;SET_PRESSURE_ADVANCE ADVANCE=0.36
M107
;LAYER_CHANGE
;Z:0.2
;HEIGHT:0.2
;BEFORE_LAYER_CHANGE
M117 layer 0 at 0.2mm
G92 E0 ;
G1 E-3 F1800
G1 Z.6 F12000
;AFTER_LAYER_CHANGE
M117 layer 0 at 0.2mm
G1 X-16.245 Y-6.034
G1 Z.2
G1 E3 F1800
;TYPE:Skirt/Brim
;WIDTH:0.42
G1 F3000
G1 X-15.788 Y-7.265 E.04117
G1 X-14.893 Y-8.957 E.06002
G1 X-13.818 Y-10.541 E.06002
G1 X-12.574 Y-11.997 E.06005
G1 X-11.646 Y-12.9 E.0406
G1 X-10.157 Y-14.103 E.06002
G1 X-8.596 Y-15.102 E.05811
G1 X-6.251 Y-16.216 E.0814
G1 X-4.429 Y-16.806 E.06005
G1 X-2.554 Y-17.191 E.06002
G1 X-.802 Y-17.365 E.0552
G1 X.802 Y-17.365 E.05029
G1 X2.554 Y-17.191 E.0552
G1 X4.429 Y-16.806 E.06002
G1 X6.251 Y-16.216 E.06005
G1 X7.997 Y-15.43 E.06004
G1 X9.646 Y-14.457 E.06003
G1 X11.178 Y-13.308 E.06004
G1 X12.995 Y-11.54 E.07949
G1 X14.186 Y-10.041 E.06003
G1 X15.204 Y-8.419 E.06004
G1 X16.038 Y-6.696 E.06002
G1 X16.492 Y-5.484 E.04058
G1 X16.995 Y-3.636 E.06005
G1 X17.292 Y-1.745 E.06002
G1 X17.362 Y.789 E.07948
G1 X17.255 Y2.079 E.04059
G1 X16.921 Y3.965 E.06005
G1 X16.382 Y5.802 E.06003
G1 X15.645 Y7.569 E.06003
G1 X14.717 Y9.244 E.06004
G1 X13.611 Y10.807 E.06004
G1 X11.894 Y12.672 E.07948
G1 X10.918 Y13.522 E.04058
G1 X9.364 Y14.641 E.06004
G1 X7.697 Y15.582 E.06002
G1 X5.936 Y16.334 E.06004
G1 X3.497 Y17.024 E.07947
G1 X1.603 Y17.305 E.06004
G1 X-.311 Y17.377 E.06005
G1 X-1.603 Y17.305 E.04057
G1 X-3.497 Y17.024 E.06004
G1 X-5.348 Y16.536 E.06002
G1 X-7.135 Y15.847 E.06005
G1 X-8.835 Y14.966 E.06003
G1 X-10.378 Y13.938 E.05813
G1 X-12.339 Y12.239 E.08135
G1 X-13.611 Y10.807 E.06005
G1 X-14.377 Y9.764 E.04057
G1 X-15.364 Y8.123 E.06004
G1 X-16.165 Y6.384 E.06003
G1 X-16.769 Y4.567 E.06004
G1 X-17.169 Y2.694 E.06005
G1 X-17.362 Y.789 E.06004
G1 X-17.343 Y-1.125 E.06002
G1 X-17.114 Y-3.027 E.06007
G1 X-16.692 Y-4.831 E.05809
G1 X-16.266 Y-5.978 E.03836
G1 X-15.915 Y-5.848 F12000
G1 F3000
G1 X-15.452 Y-7.094 E.04168
G1 X-14.578 Y-8.751 E.05874
G1 X-13.526 Y-10.302 E.05876
G1 X-12.704 Y-11.301 E.04056
G1 X-11.383 Y-12.63 E.05875
G1 X-9.925 Y-13.805 E.05871
G1 X-8.398 Y-14.781 E.05682
G1 X-6.129 Y-15.86 E.07878
G1 X-4.347 Y-16.438 E.05874
G1 X-2.512 Y-16.816 E.05874
G1 X-.792 Y-16.988 E.0542
G1 X.792 Y-16.988 E.04967
G1 X2.512 Y-16.816 E.0542
G1 X4.347 Y-16.438 E.05874
G1 X6.129 Y-15.86 E.05874
G1 X7.836 Y-15.089 E.05873
G1 X9.925 Y-13.805 E.07688
G1 X11.384 Y-12.63 E.05874
G1 X12.704 Y-11.301 E.05873
G1 X13.87 Y-9.835 E.05873
G1 X14.868 Y-8.249 E.05875
G1 X15.685 Y-6.563 E.05874
G1 X16.139 Y-5.351 E.04058
G1 X16.629 Y-3.544 E.0587
G1 X16.918 Y-1.693 E.05874
G1 X16.986 Y.758 E.07688
G1 X16.879 Y2.048 E.04059
G1 X16.551 Y3.892 E.05872
G1 X16.023 Y5.689 E.05873
G1 X15.299 Y7.417 E.05874
G1 X14.391 Y9.056 E.05875
G1 X13.307 Y10.584 E.05874
G1 X11.646 Y12.388 E.07689
G1 X10.67 Y13.237 E.04056
G1 X9.15 Y14.331 E.05872
G1 X7.517 Y15.251 E.05877
G1 X5.794 Y15.985 E.05872
G1 X3.435 Y16.652 E.07686
G1 X1.582 Y16.929 E.05875
G1 X-.29 Y17 E.05874
G1 X-1.582 Y16.929 E.04057
G1 X-3.435 Y16.652 E.05875
G1 X-5.246 Y16.173 E.05874
G1 X-6.993 Y15.498 E.05872
G1 X-9.149 Y14.331 E.07687
G1 X-10.67 Y13.237 E.05874
G1 X-12.062 Y11.983 E.05874
G1 X-13.307 Y10.584 E.05872
G1 X-14.073 Y9.541 E.04057
G1 X-15.038 Y7.935 E.05875
G1 X-15.819 Y6.232 E.05874
G1 X-16.409 Y4.454 E.05874
G1 X-16.799 Y2.622 E.05873
G1 X-16.986 Y.758 E.05874
G1 X-16.966 Y-1.115 E.05873
G1 X-16.74 Y-2.975 E.05875
G1 X-16.327 Y-4.739 E.0568
G1 X-15.936 Y-5.791 E.03519
G1 X-15.584 Y-5.661 F12000
G1 F3000
G1 X-15.115 Y-6.924 E.04224
G1 X-14.262 Y-8.545 E.05743
G1 X-13.235 Y-10.062 E.05744
G1 X-12.413 Y-11.061 E.04056
G1 X-11.121 Y-12.359 E.05742
G1 X-9.693 Y-13.508 E.05747
G1 X-8.201 Y-14.46 E.05549
G1 X-6.006 Y-15.503 E.0762
G1 X-4.264 Y-16.07 E.05744
G1 X-2.471 Y-16.441 E.05741
G1 X-.782 Y-16.611 E.05322
G1 X.782 Y-16.611 E.04904
G1 X2.471 Y-16.441 E.05322
G1 X4.264 Y-16.07 E.05741
G1 X6.006 Y-15.503 E.05744
G1 X7.675 Y-14.748 E.05744
G1 X9.251 Y-13.814 E.05744
G1 X10.715 Y-12.713 E.05743
G1 X12.413 Y-11.061 E.07428
G1 X13.554 Y-9.628 E.05743
G1 X14.262 Y-8.545 E.04057
G1 X15.115 Y-6.924 E.05743
G1 X15.785 Y-5.219 E.05744
G1 X16.264 Y-3.451 E.05743
G1 X16.545 Y-1.641 E.05743
G1 X16.61 Y.727 E.07427
G1 X16.503 Y2.017 E.04059
G1 X16.181 Y3.82 E.05743
G1 X15.663 Y5.577 E.05743
G1 X14.954 Y7.266 E.05743
G1 X14.064 Y8.867 E.05743
G1 X13.003 Y10.36 E.05743
G1 X11.399 Y12.103 E.07427
G1 X9.998 Y13.284 E.05745
G1 X8.476 Y14.303 E.05743
G1 X7.338 Y14.919 E.04057
G1 X5.652 Y15.636 E.05745
G1 X3.373 Y16.28 E.07425
G1 X1.561 Y16.552 E.05745
G1 X-.269 Y16.624 E.05742
G1 X-1.561 Y16.552 E.04057
G1 X-3.373 Y16.28 E.05745
G1 X-5.143 Y15.81 E.05742
G1 X-6.851 Y15.149 E.05742
G1 X-8.476 Y14.303 E.05744
G1 X-9.948 Y13.319 E.05552
G1 X-11.785 Y11.728 E.0762
G1 X-12.661 Y10.776 E.04056
G1 X-13.77 Y9.318 E.05744
G1 X-14.711 Y7.746 E.05744
G1 X-15.474 Y6.081 E.05743
G1 X-16.049 Y4.342 E.05743
G1 X-16.429 Y2.55 E.05744
G1 X-16.61 Y.727 E.05744
G1 X-16.589 Y-1.105 E.05744
G1 X-16.367 Y-2.923 E.05743
G1 X-15.961 Y-4.646 E.0555
G1 X-15.605 Y-5.605 E.03207
G1 X-15.279 Y-5.477 F12000
G1 F3000
G1 X-14.779 Y-6.754 E.043
G1 X-13.946 Y-8.339 E.05614
G1 X-13.238 Y-9.422 E.04057
G1 X-12.122 Y-10.821 E.05611
G1 X-10.858 Y-12.089 E.05614
G1 X-9.462 Y-13.21 E.05614
G1 X-8.003 Y-14.139 E.05423
G1 X-5.884 Y-15.146 E.07356
G1 X-4.182 Y-15.702 E.05614
G1 X-2.429 Y-16.066 E.05614
G1 X-.771 Y-16.234 E.05225
G1 X.771 Y-16.234 E.04835
G1 X2.429 Y-16.066 E.05225
G1 X4.182 Y-15.702 E.05614
G1 X5.884 Y-15.146 E.05614
G1 X7.514 Y-14.407 E.05611
G1 X9.462 Y-13.21 E.07169
G1 X10.858 Y-12.089 E.05614
G1 X12.122 Y-10.821 E.05614
G1 X13.238 Y-9.422 E.05611
G1 X14.195 Y-7.909 E.05613
G1 X14.779 Y-6.754 E.04058
G1 X15.432 Y-5.087 E.05613
G1 X15.898 Y-3.358 E.05615
G1 X16.171 Y-1.589 E.05612
G1 X16.234 Y.696 E.07167
G1 X16.127 Y1.986 E.04059
G1 X15.811 Y3.748 E.05613
G1 X15.303 Y5.464 E.05611
G1 X14.609 Y7.115 E.05615
G1 X13.737 Y8.678 E.05612
G1 X12.699 Y10.137 E.05614
G1 X11.151 Y11.819 E.07167
G1 X10.175 Y12.669 E.04058
G1 X8.72 Y13.711 E.05611
G1 X7.159 Y14.587 E.05612
G1 X5.51 Y15.286 E.05616
G1 X3.311 Y15.908 E.07165
G1 X1.54 Y16.176 E.05616
G1 X-.248 Y16.247 E.05611
G1 X-1.54 Y16.176 E.04057
G1 X-3.311 Y15.908 E.05616
G1 X-5.041 Y15.447 E.05614
G1 X-6.709 Y14.799 E.05611
G1 X-8.297 Y13.971 E.05615
G1 X-9.733 Y13.009 E.05419
G1 X-11.507 Y11.473 E.07357
G1 X-12.384 Y10.52 E.04061
G1 X-13.466 Y9.094 E.05613
G1 X-14.384 Y7.558 E.05611
G1 X-15.129 Y5.929 E.05616
G1 X-15.689 Y4.229 E.05612
G1 X-16.059 Y2.478 E.05611
G1 X-16.234 Y.696 E.05614
G1 X-16.212 Y-1.094 E.05613
G1 X-15.898 Y-3.358 E.07167
G1 X-15.432 Y-5.087 E.05615
G1 X-15.301 Y-5.421 E.01125
G1 X-14.926 Y-5.282 F12000
G1 F3000
G1 X-14.443 Y-6.584 E.04354
G1 X-13.631 Y-8.132 E.05481
G1 X-12.653 Y-9.583 E.05486
G1 X-11.522 Y-10.916 E.05481
G1 X-10.595 Y-11.819 E.04058
G1 X-9.23 Y-12.913 E.05485
G1 X-7.806 Y-13.817 E.05289
G1 X-5.761 Y-14.79 E.07101
G1 X-4.099 Y-15.334 E.05483
G1 X-2.388 Y-15.692 E.05481
G1 X-.761 Y-15.858 E.05128
G1 X.761 Y-15.858 E.04772
G1 X2.388 Y-15.692 E.05128
G1 X4.1 Y-15.334 E.05484
G1 X5.761 Y-14.79 E.0548
G1 X7.353 Y-14.066 E.05484
G1 X9.23 Y-12.912 E.06909
G1 X10.595 Y-11.819 E.05483
G1 X11.831 Y-10.581 E.05485
G1 X12.653 Y-9.583 E.04054
G1 X13.631 Y-8.132 E.05486
G1 X14.443 Y-6.584 E.05481
G1 X15.079 Y-4.955 E.05483
G1 X15.533 Y-3.266 E.05484
G1 X15.798 Y-1.537 E.05484
G1 X15.858 Y.665 E.06907
G1 X15.751 Y1.954 E.04055
G1 X15.441 Y3.675 E.05483
G1 X14.943 Y5.352 E.05485
G1 X14.263 Y6.963 E.05483
G1 X13.411 Y8.49 E.05483
G1 X12.396 Y9.914 E.05483
G1 X10.903 Y11.535 E.0691
G1 X9.928 Y12.384 E.04054
G1 X8.505 Y13.401 E.05484
G1 X6.979 Y14.256 E.05484
G1 X5.368 Y14.937 E.05484
G1 X3.249 Y15.536 E.06904
G1 X1.52 Y15.799 E.05484
G1 X-.228 Y15.871 E.05485
G1 X-1.52 Y15.799 E.04057
G1 X-3.249 Y15.536 E.05484
G1 X-4.938 Y15.085 E.05481
G1 X-6.567 Y14.45 E.05482
G1 X-8.117 Y13.64 E.05484
G1 X-9.518 Y12.699 E.05292
G1 X-11.23 Y11.217 E.071
G1 X-12.395 Y9.914 E.0548
G1 X-13.162 Y8.871 E.04059
G1 X-14.058 Y7.369 E.05484
G1 X-14.783 Y5.778 E.05482
G1 X-15.329 Y4.117 E.05482
G1 X-15.689 Y2.405 E.05485
G1 X-15.858 Y.665 E.05481
G1 X-15.835 Y-1.084 E.05484
G1 X-15.62 Y-2.819 E.05482
G1 X-15.23 Y-4.461 E.05292
G1 X-14.946 Y-5.225 E.02556
G1 X-14.595 Y-5.095 F12000
G1 F3000
G1 X-14.106 Y-6.413 E.04408
G1 X-13.522 Y-7.568 E.04058
G1 X-12.607 Y-9.01 E.05355
G1 X-11.539 Y-10.342 E.05353
G1 X-10.332 Y-11.548 E.0535
G1 X-8.999 Y-12.615 E.05354
G1 X-7.608 Y-13.496 E.05163
G1 X-5.639 Y-14.433 E.06837
G1 X-4.017 Y-14.966 E.05353
G1 X-2.346 Y-15.317 E.05354
G1 X-.75 Y-15.481 E.0503
G1 X.75 Y-15.481 E.04703
G1 X2.346 Y-15.317 E.0503
G1 X4.017 Y-14.966 E.05354
G1 X5.639 Y-14.433 E.05353
G1 X7.193 Y-13.725 E.05354
G1 X8.999 Y-12.615 E.06647
G1 X10.332 Y-11.548 E.05354
G1 X11.539 Y-10.342 E.0535
G1 X12.607 Y-9.01 E.05353
G1 X13.522 Y-7.568 E.05355
G1 X14.106 Y-6.413 E.04058
G1 X14.726 Y-4.823 E.05351
G1 X15.167 Y-3.173 E.05355
G1 X15.424 Y-1.486 E.0535
G1 X15.483 Y.634 E.0665
G1 X15.376 Y1.923 E.04055
G1 X15.071 Y3.603 E.05354
G1 X14.583 Y5.239 E.05353
G1 X13.918 Y6.812 E.05355
G1 X13.084 Y8.301 E.05351
G1 X12.092 Y9.69 E.05352
G1 X10.656 Y11.25 E.06648
G1 X9.68 Y12.1 E.04058
G1 X8.29 Y13.091 E.05352
G1 X6.8 Y13.924 E.05352
G1 X5.227 Y14.587 E.05352
G1 X3.186 Y15.164 E.0665
G1 X1.499 Y15.423 E.05351
G1 X-.207 Y15.494 E.05354
G1 X-1.499 Y15.423 E.04057
G1 X-3.186 Y15.164 E.05351
G1 X-4.835 Y14.722 E.05353
G1 X-6.426 Y14.101 E.05355
G1 X-7.938 Y13.308 E.05353
G1 X-9.303 Y12.389 E.05159
G1 X-10.952 Y10.962 E.06837
G1 X-12.092 Y9.69 E.05356
G1 X-12.858 Y8.648 E.04055
G1 X-13.731 Y7.181 E.05353
G1 X-14.438 Y5.627 E.05353
G1 X-14.969 Y4.004 E.05354
G1 X-15.319 Y2.333 E.05353
G1 X-15.483 Y.634 E.05352
G1 X-15.458 Y-1.073 E.05353
G1 X-15.246 Y-2.768 E.05356
G1 X-14.864 Y-4.369 E.05161
G1 X-14.616 Y-5.039 E.0224
G1 X-14.264 Y-4.909 F12000
G1 F3000
G1 X-13.77 Y-6.243 E.0446
G1 X-12.999 Y-7.72 E.05224
G1 X-12.071 Y-9.103 E.05222
G1 X-10.996 Y-10.376 E.05224
G1 X-10.069 Y-11.278 E.04055
G1 X-8.767 Y-12.317 E.05223
G1 X-7.411 Y-13.175 E.05031
G1 X-5.517 Y-14.076 E.06576
G1 X-3.935 Y-14.598 E.05223
G1 X-2.305 Y-14.942 E.05223
G1 X-.74 Y-15.104 E.04933
G1 X.74 Y-15.104 E.0464
G1 X2.305 Y-14.942 E.04933
G1 X3.935 Y-14.598 E.05223
G1 X5.517 Y-14.076 E.05223
G1 X7.032 Y-13.384 E.05222
G1 X8.767 Y-12.317 E.06386
G1 X10.069 Y-11.278 E.05223
G1 X11.248 Y-10.102 E.05221
G1 X12.291 Y-8.803 E.05223
G1 X13.185 Y-7.398 E.05221
G1 X13.77 Y-6.243 E.04059
G1 X14.373 Y-4.69 E.05223
G1 X14.802 Y-3.081 E.05221
G1 X15.051 Y-1.434 E.05223
G1 X15.107 Y.603 E.06389
G1 X15 Y1.892 E.04055
G1 X14.701 Y3.531 E.05224
G1 X14.223 Y5.127 E.05224
G1 X13.573 Y6.66 E.05221
G1 X12.758 Y8.113 E.05224
G1 X11.788 Y9.467 E.05222
G1 X10.408 Y10.966 E.06388
G1 X9.139 Y12.044 E.05221
G1 X8.075 Y12.782 E.0406
G1 X6.62 Y13.592 E.05221
G1 X5.085 Y14.238 E.05222
G1 X3.124 Y14.792 E.06389
G1 X1.478 Y15.046 E.05222
G1 X-.186 Y15.118 E.05222
G1 X-1.478 Y15.046 E.04057
G1 X-3.124 Y14.792 E.05222
G1 X-4.733 Y14.359 E.05224
G1 X-6.284 Y13.751 E.05223
G1 X-7.758 Y12.976 E.05222
G1 X-9.088 Y12.079 E.0503
G1 X-10.675 Y10.706 E.0658
G1 X-11.551 Y9.754 E.04056
G1 X-12.554 Y8.424 E.05223
G1 X-13.405 Y6.992 E.05223
G1 X-14.093 Y5.475 E.05223
G1 X-14.609 Y3.891 E.05223
G1 X-14.949 Y2.261 E.05221
G1 X-15.107 Y.602 E.05225
G1 X-15.081 Y-1.063 E.05221
G1 X-14.873 Y-2.716 E.05224
G1 X-14.499 Y-4.276 E.0503
G1 X-14.285 Y-4.852 E.01927
; printing object Gancho.STL id:0 copy 0
G1 E-1.5 F1800
;WIPE_START
G1 F9600
G1 X-13.77 Y-6.243 E-.26421
G1 X-12.999 Y-7.72 E-.29678
G1 X-12.071 Y-9.103 E-.29667
G1 X-10.996 Y-10.376 E-.29679
G1 X-10.069 Y-11.278 E-.23039
G1 X-9.564 Y-11.681 E-.11516
;WIPE_END
G1 Z.8 F12000
G1 X0 Y10.78
G1 Z.2
G1 E3 F1800
;TYPE:Perimeter
;WIDTH:0.419999
G1 F3750
G1 X-1.186 Y10.715 E.03724
G1 X-2.357 Y10.519 E.03723
G1 X-3.5 Y10.196 E.03724
G1 X-4.601 Y9.749 E.03726
G1 X-5.645 Y9.184 E.03722
G1 X-6.621 Y8.507 E.03724
G1 X-7.517 Y7.727 E.03725
G1 X-8.321 Y6.853 E.03723
G1 X-9.025 Y5.896 E.03725
G1 X-9.619 Y4.868 E.03723
G1 X-10.072 Y3.834 E.0354
G1 X-10.451 Y2.644 E.03916
G1 X-10.678 Y1.481 E.03715
G1 X-10.776 Y.297 E.03725
G1 X-10.743 Y-.89 E.03723
G1 X-10.58 Y-2.067 E.03726
G1 X-10.289 Y-3.218 E.03722
G1 X-9.893 Y-4.275 E.03539
G1 X-9.335 Y-5.392 E.03915
G1 X-8.686 Y-6.384 E.03717
G1 X-7.931 Y-7.301 E.03724
G1 X-7.08 Y-8.129 E.03723
G1 X-6.143 Y-8.859 E.03724
G1 X-5.131 Y-9.481 E.03724
G1 X-4.057 Y-9.988 E.03724
G1 X-2.933 Y-10.373 E.03725
G1 X-1.774 Y-10.633 E.03724
G1 X-.582 Y-10.765 E.0376
G1 X.029 Y-10.78 E.01916
G1 X.581 Y-10.765 E.01731
G1 X1.774 Y-10.633 E.03763
G1 X2.933 Y-10.373 E.03724
G1 X4.057 Y-9.988 E.03725
G1 X5.131 Y-9.481 E.03724
G1 X6.143 Y-8.859 E.03724
G1 X7.08 Y-8.129 E.03724
G1 X7.931 Y-7.301 E.03723
G1 X8.686 Y-6.384 E.03724
G1 X9.336 Y-5.39 E.03724
G1 X9.828 Y-4.418 E.03416
G1 X10.009 Y-3.964 E.01532
G1 X10.36 Y-2.936 E.03406
G1 X10.618 Y-1.79 E.03683
G1 X10.744 Y-.85 E.02974
G1 X10.776 Y.297 E.03598
G1 X10.678 Y1.481 E.03725
G1 X10.45 Y2.646 E.03722
G1 X10.096 Y3.78 E.03725
G1 X9.619 Y4.868 E.03725
G1 X9.025 Y5.896 E.03723
G1 X8.321 Y6.853 E.03725
G1 X7.517 Y7.727 E.03723
G1 X6.621 Y8.507 E.03725
G1 X5.645 Y9.184 E.03724
G1 X4.601 Y9.749 E.03722
G1 X3.5 Y10.196 E.03726
G1 X2.357 Y10.519 E.03724
G1 X1.186 Y10.715 E.03723
G1 X.06 Y10.777 E.03536
G1 X0 Y11.158 F12000
G1 F3750
G1 X-1.227 Y11.09 E.03853
G1 X-2.44 Y10.888 E.03856
G1 X-3.623 Y10.553 E.03855
G1 X-4.762 Y10.091 E.03854
G1 X-5.843 Y9.505 E.03855
G1 X-6.853 Y8.805 E.03853
G1 X-7.78 Y7.998 E.03854
G1 X-8.613 Y7.093 E.03857
G1 X-9.341 Y6.103 E.03853
G1 X-9.956 Y5.038 E.03856
G1 X-10.425 Y3.967 E.03666
G1 X-10.817 Y2.738 E.04045
G1 X-11.052 Y1.533 E.03849
G1 X-11.153 Y.307 E.03857
G1 X-11.12 Y-.921 E.03852
G1 X-10.951 Y-2.139 E.03856
G1 X-10.649 Y-3.331 E.03856
G1 X-10.239 Y-4.426 E.03666
G1 X-9.662 Y-5.58 E.04045
G1 X-8.99 Y-6.608 E.03851
G1 X-8.209 Y-7.557 E.03854
G1 X-7.328 Y-8.414 E.03854
G1 X-6.358 Y-9.169 E.03854
G1 X-5.31 Y-9.813 E.03857
G1 X-4.199 Y-10.338 E.03853
G1 X-3.036 Y-10.737 E.03855
G1 X-1.837 Y-11.006 E.03853
G1 X-.607 Y-11.142 E.0388
G1 X.03 Y-11.158 E.01998
G1 X.607 Y-11.142 E.0181
G1 X1.837 Y-11.006 E.0388
G1 X3.036 Y-10.737 E.03853
G1 X4.199 Y-10.338 E.03855
G1 X5.311 Y-9.813 E.03856
G1 X6.358 Y-9.169 E.03854
G1 X7.328 Y-8.414 E.03854
G1 X8.209 Y-7.557 E.03854
G1 X8.991 Y-6.608 E.03856
G1 X9.663 Y-5.579 E.03853
G1 X10.218 Y-4.482 E.03855
G1 X10.579 Y-3.518 E.03228
G1 X10.725 Y-3.029 E.016
G1 X10.992 Y-1.842 E.03815
G1 X11.121 Y-.86 E.03105
G1 X11.153 Y.307 E.0366
G1 X11.052 Y1.533 E.03857
G1 X10.816 Y2.739 E.03853
G1 X10.449 Y3.912 E.03854
G1 X9.956 Y5.038 E.03854
G1 X9.341 Y6.103 E.03856
G1 X8.613 Y7.093 E.03853
G1 X7.78 Y7.998 E.03857
G1 X6.853 Y8.805 E.03854
G1 X5.843 Y9.505 E.03853
G1 X4.762 Y10.091 E.03855
G1 X3.623 Y10.553 E.03854
G1 X2.44 Y10.888 E.03855
G1 X1.227 Y11.09 E.03856
G1 X.06 Y11.154 E.03665
G1 X.001 Y11.535 F12000
;TYPE:External perimeter
G1 F2812.5
G1 X-1.269 Y11.465 E.03988
G1 X-2.523 Y11.256 E.03986
G1 X-3.746 Y10.91 E.03985
G1 X-4.923 Y10.432 E.03983
G1 X-6.041 Y9.827 E.03986
G1 X-7.085 Y9.103 E.03983
G1 X-8.044 Y8.268 E.03987
G1 X-8.904 Y7.333 E.03983
G1 X-9.657 Y6.309 E.03985
G1 X-10.292 Y5.209 E.03982
G1 X-10.779 Y4.1 E.03798
G1 X-11.182 Y2.831 E.04175
G1 X-11.426 Y1.584 E.03984
G1 X-11.531 Y.318 E.03983
G1 X-11.496 Y-.953 E.03987
G1 X-11.321 Y-2.211 E.03982
G1 X-11.009 Y-3.443 E.03985
G1 X-10.585 Y-4.577 E.03796
G1 X-9.99 Y-5.768 E.04174
G1 X-9.295 Y-6.832 E.03985
G1 X-8.487 Y-7.813 E.03985
