; generated by PrusaSlicer 2.6.0+linux-x64-GTK3 on 2023-08-03 at 16:17:18 UTC


;
;

;
;
; 

; external perimeters extrusion width = 0.45mm
; perimeters extrusion width = 0.45mm
; infill extrusion width = 0.45mm
; solid infill extrusion width = 0.45mm
; top infill extrusion width = 0.40mm
; first layer extrusion width = 0.42mm

;TYPE:Custom
; printing object STARTGCODE
M104 S0;
M140 S0;
START_PRINT BED_TEMP_FL=60 EXTRUDER_TEMP=210;
G21 ; set units to millimeters
G90 ; use absolute coordinates
M83 ; use relative distances for extrusion
; Filament gcode
;SET_PRESSURE_ADVANCE ADVANCE=0.36
M107
;LAYER_CHANGE
;Z:0.32
;HEIGHT:0.32
;BEFORE_LAYER_CHANGE
M117 layer 0 at 0.32mm
G92 E0 ;
G1 E-3 F1800
G1 Z.6 F12000
;AFTER_LAYER_CHANGE
M117 layer 0 at 0.32mm
G1 X0 Y-36.675
G1 Z.32
G1 E3 F1800
;TYPE:Skirt/Brim
;WIDTH:0.42
G1 F1500
G1 X28.523 Y-36.675 E1.32785
G1 X29.292 Y-36.594 E.036
G1 X30.315 Y-36.377 E.04868
G1 X32.006 Y-35.713 E.08457
G1 X33.522 Y-34.711 E.0846
G1 X34.097 Y-34.193 E.03603
G1 X34.797 Y-33.416 E.04869
G1 X35.774 Y-31.885 E.08455
G1 X36.412 Y-30.184 E.08457
G1 X36.682 Y-28.387 E.0846
G1 X36.703 Y28 E2.62503
G1 X36.573 Y29.427 E.06671
G1 X36.089 Y31.178 E.08457
G1 X35.252 Y32.79 E.08456
G1 X34.797 Y33.416 E.03603
G1 X33.522 Y34.711 E.0846
G1 X32.006 Y35.713 E.0846
G1 X30.315 Y36.377 E.08457
G1 X28.523 Y36.675 E.08457
G1 X-28.523 Y36.675 E2.65571
G1 X-30.315 Y36.377 E.08457
G1 X-31.051 Y36.138 E.03602
G1 X-32.676 Y35.326 E.08457
G1 X-33.522 Y34.711 E.04869
G1 X-34.797 Y33.416 E.0846
G1 X-35.774 Y31.885 E.08455
G1 X-36.412 Y30.184 E.08457
G1 X-36.573 Y29.427 E.03603
G1 X-36.703 Y28 E.06671
G1 X-36.703 Y-28 E2.60701
G1 X-36.573 Y-29.427 E.06671
G1 X-36.089 Y-31.178 E.08457
G1 X-35.774 Y-31.885 E.03603
G1 X-34.797 Y-33.416 E.08455
G1 X-33.522 Y-34.711 E.0846
G1 X-32.006 Y-35.713 E.0846
G1 X-30.315 Y-36.377 E.08457
G1 X-28.523 Y-36.675 E.08457
G1 X-.06 Y-36.675 E1.32506
G1 X-.06 Y-36.324 F12000
G1 F1500
G1 X28.523 Y-36.324 E1.33065
G1 X29.219 Y-36.251 E.03258
G1 X30.242 Y-36.033 E.04869
G1 X31.863 Y-35.392 E.08115
G1 X33.316 Y-34.427 E.0812
G1 X33.836 Y-33.958 E.0326
G1 X34.536 Y-33.181 E.04869
G1 X35.47 Y-31.709 E.08116
G1 X36.078 Y-30.075 E.08116
G1 X36.333 Y-28.35 E.08118
G1 X36.351 Y28 E2.62331
G1 X36.224 Y29.39 E.06498
G1 X35.755 Y31.069 E.08116
G1 X34.947 Y32.615 E.08121
G1 X34.536 Y33.181 E.03256
G1 X33.315 Y34.427 E.08121
G1 X31.863 Y35.392 E.08116
G1 X30.242 Y36.033 E.08115
G1 X28.523 Y36.324 E.08116
G1 X-28.523 Y36.324 E2.65571
G1 X-30.242 Y36.033 E.08116
G1 X-30.908 Y35.817 E.03259
G1 X-32.47 Y35.041 E.0812
G1 X-33.316 Y34.427 E.04866
G1 X-34.536 Y33.181 E.08118
G1 X-35.47 Y31.709 E.08116
G1 X-36.078 Y30.075 E.08116
G1 X-36.224 Y29.39 E.03261
G1 X-36.351 Y28 E.06498
G1 X-36.351 Y-28 E2.60701
G1 X-36.224 Y-29.39 E.06498
G1 X-35.755 Y-31.069 E.08116
G1 X-35.47 Y-31.709 E.03262
G1 X-34.536 Y-33.181 E.08116
G1 X-33.316 Y-34.427 E.08118
G1 X-31.863 Y-35.392 E.0812
G1 X-30.242 Y-36.033 E.08115
G1 X-28.523 Y-36.324 E.08116
G1 X-.12 Y-36.324 E1.32227
; printing object square_tower.stl id:0 copy 0
G1 E-1.5 F1800
;WIPE_START
G1 F9600
G1 X8.301 Y-36.324 E-1.5
;WIPE_END
G1 Z.92 F12000
G1 X29.685 Y23.896
G1 Z.32
G1 E3 F1800
;TYPE:Perimeter
;WIDTH:0.42
G1 F1500
G1 X29.751 Y23.951 E.004
G1 X30.218 Y24.159 E.0238
G1 X30.968 Y24.704 E.04316
G1 X31.588 Y25.393 E.04315
G1 X32.052 Y26.196 E.04317
G1 X32.339 Y27.078 E.04318
G1 X32.436 Y28 E.04316
G1 X32.339 Y28.922 E.04316
G1 X32.052 Y29.804 E.04318
G1 X31.588 Y30.607 E.04317
G1 X30.968 Y31.296 E.04315
G1 X30.218 Y31.841 E.04316
G1 X29.371 Y32.219 E.04318
G1 X28.464 Y32.411 E.04316
G1 X27.536 Y32.411 E.0432
G1 X26.629 Y32.219 E.04316
G1 X25.782 Y31.841 E.04318
G1 X25.032 Y31.296 E.04316
G1 X24.413 Y30.609 E.04305
G1 X23.843 Y29.625 E.05294
G1 X23.607 Y29.465 E.01327
G1 X23.441 Y29.439 E.00782
G1 X-23.441 Y29.439 E2.18253
G1 X-23.607 Y29.465 E.00782
G1 X-23.75 Y29.538 E.00747
G1 X-23.899 Y29.705 E.01042
G1 X-24.413 Y30.609 E.04841
G1 X-25.032 Y31.296 E.04305
G1 X-25.782 Y31.841 E.04316
G1 X-26.629 Y32.219 E.04318
G1 X-27.536 Y32.411 E.04316
G1 X-28.464 Y32.411 E.0432
G1 X-29.371 Y32.219 E.04316
G1 X-30.218 Y31.841 E.04318
G1 X-30.968 Y31.296 E.04316
G1 X-31.588 Y30.607 E.04315
G1 X-32.052 Y29.804 E.04317
G1 X-32.339 Y28.922 E.04318
G1 X-32.436 Y28 E.04316
G1 X-32.339 Y27.078 E.04316
G1 X-32.052 Y26.196 E.04318
G1 X-31.588 Y25.393 E.04317
G1 X-30.968 Y24.704 E.04315
G1 X-30.218 Y24.159 E.04316
G1 X-29.879 Y24.008 E.01728
G1 X-29.593 Y23.843 E.01537
G1 X-29.465 Y23.633 E.01145
G1 X-29.439 Y23.47 E.00768
G1 X-29.439 Y-23.47 E2.18523
G1 X-29.447 Y-23.561 E.00425
G1 X-29.535 Y-23.773 E.01069
G1 X-29.751 Y-23.951 E.01303
G1 X-30.218 Y-24.159 E.0238
G1 X-30.968 Y-24.704 E.04316
G1 X-31.588 Y-25.393 E.04315
G1 X-32.052 Y-26.196 E.04317
G1 X-32.339 Y-27.078 E.04318
G1 X-32.436 Y-28 E.04316
G1 X-32.339 Y-28.922 E.04316
G1 X-32.052 Y-29.804 E.04318
G1 X-31.588 Y-30.607 E.04317
G1 X-30.968 Y-31.296 E.04315
G1 X-30.218 Y-31.841 E.04316
G1 X-29.371 Y-32.218 E.04316
G1 X-28.464 Y-32.411 E.04317
G1 X-27.536 Y-32.411 E.0432
G1 X-26.629 Y-32.218 E.04317
G1 X-25.782 Y-31.841 E.04316
G1 X-25.032 Y-31.296 E.04316
G1 X-24.413 Y-30.609 E.04305
G1 X-23.843 Y-29.625 E.05294
G1 X-23.607 Y-29.465 E.01327
G1 X-23.441 Y-29.439 E.00782
G1 X23.441 Y-29.439 E2.18253
G1 X23.532 Y-29.447 E.00425
G1 X23.75 Y-29.538 E.011
G1 X23.899 Y-29.705 E.01042
G1 X24.413 Y-30.609 E.04841
G1 X25.032 Y-31.296 E.04305
G1 X25.782 Y-31.841 E.04316
G1 X26.629 Y-32.218 E.04316
G1 X27.536 Y-32.411 E.04317
G1 X28.464 Y-32.411 E.0432
G1 X29.371 Y-32.218 E.04317
G1 X30.218 Y-31.841 E.04316
G1 X30.968 Y-31.296 E.04316
G1 X31.588 Y-30.607 E.04315
G1 X32.052 Y-29.804 E.04317
G1 X32.339 Y-28.922 E.04318
G1 X32.436 Y-28 E.04316
G1 X32.339 Y-27.078 E.04316
G1 X32.052 Y-26.196 E.04318
G1 X31.588 Y-25.393 E.04317
G1 X30.968 Y-24.704 E.04315
G1 X30.218 Y-24.159 E.04316
G1 X29.751 Y-23.951 E.0238
G1 X29.535 Y-23.773 E.01303
G1 X29.439 Y-23.47 E.0148
G1 X29.439 Y23.47 E2.18523
G1 X29.447 Y23.561 E.00425
G1 X29.535 Y23.773 E.01069
G1 X29.638 Y23.858 E.00622
G1 X29.894 Y23.63 F12000
;TYPE:External perimeter
G1 F1500
G1 X30.394 Y23.853 E.02549
G1 X31.204 Y24.441 E.0466
G1 X31.874 Y25.185 E.04661
G1 X32.375 Y26.052 E.04662
G1 X32.684 Y27.004 E.0466
G1 X32.789 Y28 E.04662
G1 X32.684 Y28.996 E.04662
G1 X32.375 Y29.948 E.0466
G1 X31.874 Y30.815 E.04662
G1 X31.204 Y31.559 E.04661
G1 X30.394 Y32.147 E.0466
G1 X29.48 Y32.554 E.04658
G1 X28.501 Y32.763 E.0466
G1 X27.499 Y32.763 E.04665
G1 X26.52 Y32.554 E.0466
G1 X25.606 Y32.147 E.04658
G1 X24.796 Y31.559 E.0466
G1 X24.126 Y30.815 E.04661
G1 X23.575 Y29.852 E.05165
G1 X23.441 Y29.79 E.00687
G1 X-23.441 Y29.79 E2.18253
G1 X-23.497 Y29.799 E.00264
G1 X-23.594 Y29.879 E.00585
G1 X-24.126 Y30.815 E.05012
G1 X-24.796 Y31.559 E.04661
G1 X-25.606 Y32.147 E.0466
G1 X-26.52 Y32.554 E.04658
G1 X-27.499 Y32.763 E.0466
G1 X-28.501 Y32.763 E.04665
G1 X-29.48 Y32.554 E.0466
G1 X-30.394 Y32.147 E.04658
G1 X-31.204 Y31.559 E.0466
G1 X-31.874 Y30.815 E.04661
G1 X-32.375 Y29.948 E.04662
G1 X-32.684 Y28.996 E.0466
G1 X-32.789 Y28 E.04662
G1 X-32.684 Y27.004 E.04662
G1 X-32.375 Y26.052 E.0466
G1 X-31.874 Y25.185 E.04662
G1 X-31.204 Y24.441 E.04661
G1 X-30.394 Y23.853 E.0466
G1 X-29.861 Y23.611 E.02725
G1 X-29.79 Y23.47 E.00735
G1 X-29.79 Y-23.47 E2.18523
G1 X-29.799 Y-23.524 E.00255
G1 X-29.894 Y-23.63 E.00663
G1 X-30.394 Y-23.853 E.02549
G1 X-31.204 Y-24.441 E.0466
G1 X-31.874 Y-25.185 E.04661
G1 X-32.375 Y-26.052 E.04662
G1 X-32.684 Y-27.004 E.0466
G1 X-32.789 Y-28 E.04662
G1 X-32.684 Y-28.996 E.04662
G1 X-32.375 Y-29.948 E.0466
G1 X-31.874 Y-30.815 E.04662
G1 X-31.204 Y-31.559 E.04661
G1 X-30.394 Y-32.147 E.0466
G1 X-29.48 Y-32.554 E.04658
G1 X-28.501 Y-32.763 E.0466
G1 X-27.499 Y-32.763 E.04665
G1 X-26.52 Y-32.554 E.0466
G1 X-25.606 Y-32.147 E.04658
G1 X-24.796 Y-31.559 E.0466
G1 X-24.126 Y-30.815 E.04661
G1 X-23.575 Y-29.852 E.05165
G1 X-23.441 Y-29.79 E.00687
G1 X23.441 Y-29.79 E2.18253
G1 X23.472 Y-29.793 E.00145
G1 X23.594 Y-29.879 E.00695
G1 X24.126 Y-30.815 E.05012
G1 X24.796 Y-31.559 E.04661
G1 X25.606 Y-32.147 E.0466
G1 X26.52 Y-32.554 E.04658
G1 X27.499 Y-32.763 E.0466
G1 X28.501 Y-32.763 E.04665
G1 X29.48 Y-32.554 E.0466
G1 X30.394 Y-32.147 E.04658
G1 X31.204 Y-31.559 E.0466
G1 X31.874 Y-30.815 E.04661
G1 X32.375 Y-29.948 E.04662
G1 X32.684 Y-28.996 E.0466
G1 X32.789 Y-28 E.04662
G1 X32.684 Y-27.004 E.04662
G1 X32.375 Y-26.052 E.0466
G1 X31.874 Y-25.185 E.04662
G1 X31.204 Y-24.441 E.04661
G1 X30.394 Y-23.853 E.0466
G1 X29.861 Y-23.611 E.02725
G1 X29.79 Y-23.47 E.00735
G1 X29.79 Y23.47 E2.18523
G1 X29.799 Y23.524 E.00255
G1 X29.854 Y23.586 E.00386
G1 X29.859 Y24.029 F12000
G1 E-1.5 F1800
;WIPE_START
G1 F9600
G1 X30.394 Y23.853 E-.1073
G1 X31.204 Y24.441 E-.17829
G1 X31.874 Y25.185 E-.17834
G1 X32.375 Y26.052 E-.17836
G1 X32.684 Y27.004 E-.17828
G1 X32.789 Y28 E-.1784
G1 X32.684 Y28.996 E-.1784
G1 X32.375 Y29.948 E-.17828
G1 X31.97 Y30.65 E-.14435
;WIPE_END
G1 Z.92 F12000
G1 X-25.374 Y-25.424
G1 Z.32
G1 E3 F1800
;TYPE:Perimeter
G1 F1500
G1 X-25.331 Y-25.47 E.00293
G1 X-25.161 Y-25.546 E.00867
G1 X-24.238 Y-25.561 E.04297
G1 X-1.548 Y-25.561 E1.05631
G1 X-1.352 Y-25.954 E.02044
G1 X-1.125 Y-26.053 E.01153
G1 X1.034 Y-26.061 E.10051
G1 X1.207 Y-26.032 E.00817
G1 X1.352 Y-25.954 E.00766
G1 X1.548 Y-25.561 E.02044
G1 X25.034 Y-25.561 E1.09336
G1 X25.254 Y-25.514 E.01047
G1 X25.465 Y-25.338 E.01279
G1 X25.554 Y-25.124 E.01079
G1 X25.561 Y-24.252 E.0406
G1 X25.561 Y-1.548 E1.05696
G1 X25.954 Y-1.352 E.02044
G1 X26.053 Y-1.125 E.01153
G1 X26.061 Y1.034 E.10051
G1 X26.032 Y1.207 E.00817
G1 X25.954 Y1.352 E.00766
G1 X25.561 Y1.548 E.02044
G1 X25.561 Y25.034 E1.09336
G1 X25.487 Y25.304 E.01303
G1 X25.331 Y25.47 E.0106
G1 X25.161 Y25.546 E.00867
G1 X24.238 Y25.561 E.04297
G1 X1.548 Y25.561 E1.05631
G1 X1.352 Y25.954 E.02044
G1 X1.125 Y26.053 E.01153
G1 X-1.034 Y26.061 E.10051
G1 X-1.206 Y26.032 E.00812
G1 X-1.352 Y25.954 E.00771
G1 X-1.548 Y25.561 E.02044
G1 X-25.034 Y25.561 E1.09336
G1 X-25.254 Y25.514 E.01047
G1 X-25.439 Y25.372 E.01086
G1 X-25.554 Y25.124 E.01273
G1 X-25.561 Y24.252 E.0406
G1 X-25.561 Y-2.452 E1.24317
G1 X-25.954 Y-2.648 E.02044
G1 X-26.053 Y-2.875 E.01153
G1 X-26.061 Y-5.034 E.10051
G1 X-26.032 Y-5.206 E.00812
G1 X-25.954 Y-5.352 E.00771
G1 X-25.561 Y-5.548 E.02044
G1 X-25.561 Y-25.034 E.90715
G1 X-25.487 Y-25.304 E.01303
G1 X-25.415 Y-25.381 E.00491
G1 X-25.142 Y-25.173 F12000
;TYPE:External perimeter
G1 F1500
G1 X-25.034 Y-25.21 E.00531
G1 X-1.21 Y-25.21 E1.1091
G1 X-1.21 Y-25.534 E.01508
G1 X-1.092 Y-25.7 E.00948
G1 X1.034 Y-25.71 E.09897
G1 X1.14 Y-25.674 E.00521
G1 X1.21 Y-25.534 E.00729
G1 X1.21 Y-25.21 E.01508
G1 X25.034 Y-25.21 E1.1091
G1 X25.175 Y-25.14 E.00733
G1 X25.21 Y-25.034 E.0052
G1 X25.21 Y-1.21 E1.1091
G1 X25.534 Y-1.21 E.01508
G1 X25.7 Y-1.092 E.00948
G1 X25.71 Y1.034 E.09897
G1 X25.674 Y1.14 E.00521
G1 X25.534 Y1.21 E.00729
G1 X25.21 Y1.21 E.01508
G1 X25.21 Y25.034 E1.1091
G1 X25.142 Y25.173 E.0072
G1 X25.034 Y25.21 E.00531
G1 X1.21 Y25.21 E1.1091
G1 X1.21 Y25.534 E.01508
G1 X1.092 Y25.7 E.00948
G1 X-1.034 Y25.71 E.09897
G1 X-1.14 Y25.674 E.00521
G1 X-1.21 Y25.534 E.00729
G1 X-1.21 Y25.21 E.01508
G1 X-25.034 Y25.21 E1.1091
G1 X-25.169 Y25.147 E.00694
G1 X-25.21 Y25.034 E.0056
G1 X-25.21 Y-2.79 E1.29531
G1 X-25.534 Y-2.79 E.01508
G1 X-25.7 Y-2.908 E.00948
G1 X-25.71 Y-5.034 E.09897
G1 X-25.674 Y-5.14 E.00521
G1 X-25.534 Y-5.21 E.00729
G1 X-25.21 Y-5.21 E.01508
G1 X-25.21 Y-25.034 E.92288
G1 X-25.168 Y-25.119 E.00441
G1 X-25.167 Y-25.284 F12000
G1 E-1.5 F1800
;WIPE_START
G1 F9600
G1 X-25.034 Y-25.21 E-.02885
G1 X-16.775 Y-25.21 E-1.47115
;WIPE_END
G1 Z.92 F12000
G1 X-25.656 Y24.813
G1 Z.32
G1 E3 F1800
;TYPE:Solid infill
;WIDTH:0.420271
G1 F1500
G1 X-29.186 Y21.283 E.23258
G1 X-29.186 Y20.786 E.02316
G1 X-25.814 Y24.158 E.22217
G1 X-25.814 Y23.66 E.0232
G1 X-29.186 Y20.289 E.22214
G1 X-29.186 Y19.792 E.02316
G1 X-25.814 Y23.163 E.22214
G1 X-25.814 Y22.666 E.02316
G1 X-29.186 Y19.295 E.22214
G1 X-29.186 Y18.797 E.0232
G1 X-25.814 Y22.169 E.22217
G1 X-25.814 Y21.671 E.0232
G1 X-29.186 Y18.3 E.22214
G1 X-29.186 Y17.803 E.02316
G1 X-25.814 Y21.174 E.22214
G1 X-25.814 Y20.677 E.02316
G1 X-29.186 Y17.306 E.22214
G1 X-29.186 Y16.808 E.0232
G1 X-25.814 Y20.18 E.22217
G1 X-25.814 Y19.683 E.02316
G1 X-29.186 Y16.311 E.22217
G1 X-29.186 Y15.814 E.02316
G1 X-25.814 Y19.185 E.22214
G1 X-25.814 Y18.688 E.02316
G1 X-29.186 Y15.317 E.22214
G1 X-29.186 Y14.819 E.0232
G1 X-25.814 Y18.191 E.22217
G1 X-25.814 Y17.694 E.02316
G1 X-29.186 Y14.322 E.22217
G1 X-29.186 Y13.825 E.02316
G1 X-25.814 Y17.196 E.22214
G1 X-25.814 Y16.699 E.02316
G1 X-29.186 Y13.328 E.22214
G1 X-29.186 Y12.83 E.0232
G1 X-25.814 Y16.202 E.22217
G1 X-25.814 Y15.705 E.02316
G1 X-29.186 Y12.333 E.22217
G1 X-29.186 Y11.836 E.02316
G1 X-25.814 Y15.207 E.22214
G1 X-25.814 Y14.71 E.02316
G1 X-29.186 Y11.339 E.22214
G1 X-29.186 Y10.842 E.02316
G1 X-25.814 Y14.213 E.22214
G1 X-25.814 Y13.716 E.02316
G1 X-29.186 Y10.344 E.22217
G1 X-29.186 Y9.847 E.02316
G1 X-25.814 Y13.219 E.22217
G1 X-25.814 Y12.721 E.0232
G1 X-29.186 Y9.35 E.22214
G1 X-29.186 Y8.853 E.02316
G1 X-25.814 Y12.224 E.22214
G1 X-25.814 Y11.727 E.02316
G1 X-29.186 Y8.355 E.22217
G1 X-29.186 Y7.858 E.02316
G1 X-25.814 Y11.23 E.22217
G1 X-25.814 Y10.732 E.0232
G1 X-29.186 Y7.361 E.22214
G1 X-29.186 Y6.864 E.02316
G1 X-25.814 Y10.235 E.22214
G1 X-25.814 Y9.738 E.02316
G1 X-29.186 Y6.366 E.22217
G1 X-29.186 Y5.869 E.02316
G1 X-25.814 Y9.241 E.22217
G1 X-25.814 Y8.743 E.0232
G1 X-29.186 Y5.372 E.22214
G1 X-29.186 Y4.875 E.02316
G1 X-25.814 Y8.246 E.22214
G1 X-25.814 Y7.749 E.02316
G1 X-29.186 Y4.377 E.22217
G1 X-29.186 Y3.88 E.02316
G1 X-25.814 Y7.252 E.22217
G1 X-25.814 Y6.754 E.0232
G1 X-29.186 Y3.383 E.22214
G1 X-29.186 Y2.886 E.02316
G1 X-25.814 Y6.257 E.22214
G1 X-25.814 Y5.76 E.02316
G1 X-29.186 Y2.389 E.22214
G1 X-29.186 Y1.891 E.0232
G1 X-25.814 Y5.263 E.22217
G1 X-25.814 Y4.766 E.02316
G1 X-29.186 Y1.394 E.22217
G1 X-29.186 Y.897 E.02316
G1 X-25.814 Y4.268 E.22214
G1 X-25.814 Y3.771 E.02316
G1 X-29.186 Y.4 E.22214
G1 X-29.186 Y-.098 E.0232
G1 X-25.814 Y3.274 E.22217
G1 X-25.814 Y2.777 E.02316
G1 X-29.186 Y-.595 E.22217
G1 X-29.186 Y-1.092 E.02316
G1 X-25.814 Y2.279 E.22214
G1 X-25.814 Y1.782 E.02316
G1 X-29.186 Y-1.589 E.22214
G1 X-29.186 Y-2.087 E.0232
G1 X-25.814 Y1.285 E.22217
G1 X-25.814 Y.788 E.02316
G1 X-29.186 Y-2.584 E.22217
G1 X-29.186 Y-3.081 E.02316
G1 X-25.814 Y.29 E.22214
G1 X-25.814 Y-.207 E.02316
G1 X-29.186 Y-3.578 E.22214
G1 X-29.186 Y-4.076 E.0232
G1 X-25.814 Y-.704 E.22217
G1 X-25.814 Y-1.201 E.02316
G1 X-29.186 Y-4.573 E.22217
G1 X-29.186 Y-5.07 E.02316
G1 X-25.814 Y-1.699 E.22214
G1 X-25.814 Y-2.196 E.02316
G1 X-29.186 Y-5.567 E.22214
G1 X-29.186 Y-6.064 E.02316
G1 X-26.305 Y-3.184 E.18979
G1 X-26.308 Y-3.684 E.0233
G1 X-29.186 Y-6.562 E.18962
G1 X-29.186 Y-7.059 E.02316
G1 X-26.31 Y-4.183 E.18949
G1 X-26.313 Y-4.683 E.0233
G1 X-29.186 Y-7.556 E.1893
G1 X-29.186 Y-8.053 E.02316
G1 X-26.294 Y-5.162 E.19051
G1 X-26.273 Y-5.289 E.006
G1 X-26.151 Y-5.516 E.01201
G1 X-29.186 Y-8.551 E.19997
G1 X-29.186 Y-9.048 E.02316
G1 X-25.819 Y-5.682 E.22181
G1 X-25.814 Y-6.174 E.02292
G1 X-29.186 Y-9.545 E.22214
G1 X-29.186 Y-10.042 E.02316
G1 X-25.814 Y-6.671 E.22214
G1 X-25.814 Y-7.168 E.02316
G1 X-29.186 Y-10.54 E.22217
G1 X-29.186 Y-11.037 E.02316
G1 X-25.814 Y-7.665 E.22217
G1 X-25.814 Y-8.163 E.0232
G1 X-29.186 Y-11.534 E.22214
G1 X-29.186 Y-12.031 E.02316
G1 X-25.814 Y-8.66 E.22214
G1 X-25.814 Y-9.157 E.02316
G1 X-29.186 Y-12.528 E.22214
G1 X-29.186 Y-13.026 E.0232
G1 X-25.814 Y-9.654 E.22217
G1 X-25.814 Y-10.152 E.0232
G1 X-29.186 Y-13.523 E.22214
G1 X-29.186 Y-14.02 E.02316
G1 X-25.814 Y-10.649 E.22214
G1 X-25.814 Y-11.146 E.02316
G1 X-29.186 Y-14.517 E.22214
G1 X-29.186 Y-15.015 E.0232
G1 X-25.814 Y-11.643 E.22217
G1 X-25.814 Y-12.14 E.02316
G1 X-29.186 Y-15.512 E.22217
G1 X-29.186 Y-16.009 E.02316
G1 X-25.814 Y-12.638 E.22214
G1 X-25.814 Y-13.135 E.02316
G1 X-29.186 Y-16.506 E.22214
G1 X-29.186 Y-17.004 E.0232
G1 X-25.814 Y-13.632 E.22217
